<?xml version="1.0" encoding="UTF-8"?>
<map version="1.10" tiledversion="1.11.2" orientation="orthogonal" renderorder="left-up" width="100" height="100" tilewidth="32" tileheight="32" infinite="0" nextlayerid="7" nextobjectid="7">
 <editorsettings>
  <export target="Level1.lua" format="lua"/>
 </editorsettings>
 <tileset firstgid="1" name="New Piskel-1.png" tilewidth="32" tileheight="32" tilecount="128" columns="8">
  <image source="../Tiles/New Piskel-1.png.png" width="256" height="512"/>
  <tile id="0" probability="0.35"/>
  <tile id="2" probability="0.5"/>
  <wangsets>
   <wangset name="Grass" type="corner" tile="-1">
    <wangcolor name="Grass" color="#ff0000" tile="-1" probability="1"/>
    <wangcolor name="Dirt" color="#00ff00" tile="-1" probability="1"/>
    <wangtile tileid="0" wangid="0,1,0,1,0,1,0,1"/>
    <wangtile tileid="1" wangid="0,1,0,1,0,1,0,1"/>
    <wangtile tileid="2" wangid="0,1,0,1,0,1,0,1"/>
    <wangtile tileid="8" wangid="0,2,0,2,0,2,0,2"/>
    <wangtile tileid="10" wangid="0,2,0,2,0,2,0,2"/>
    <wangtile tileid="17" wangid="0,2,0,2,0,2,0,2"/>
    <wangtile tileid="18" wangid="0,2,0,2,0,2,0,2"/>
    <wangtile tileid="24" wangid="0,2,0,2,0,2,0,2"/>
    <wangtile tileid="25" wangid="0,2,0,2,0,2,0,2"/>
    <wangtile tileid="28" wangid="0,2,0,2,0,2,0,2"/>
   </wangset>
   <wangset name="Dirt" type="corner" tile="-1">
    <wangcolor name="Dirt" color="#ff0000" tile="-1" probability="1"/>
    <wangcolor name="water" color="#00ff00" tile="-1" probability="1"/>
    <wangtile tileid="4" wangid="0,2,0,2,0,2,0,2"/>
    <wangtile tileid="8" wangid="0,1,0,1,0,1,0,1"/>
    <wangtile tileid="10" wangid="0,1,0,1,0,1,0,1"/>
    <wangtile tileid="12" wangid="0,1,0,2,0,1,0,1"/>
    <wangtile tileid="13" wangid="0,1,0,1,0,1,0,2"/>
    <wangtile tileid="17" wangid="0,1,0,1,0,1,0,1"/>
    <wangtile tileid="18" wangid="0,1,0,1,0,1,0,1"/>
    <wangtile tileid="20" wangid="0,2,0,1,0,1,0,1"/>
    <wangtile tileid="21" wangid="0,1,0,1,0,2,0,1"/>
    <wangtile tileid="24" wangid="0,1,0,1,0,1,0,1"/>
    <wangtile tileid="25" wangid="0,1,0,1,0,1,0,1"/>
    <wangtile tileid="28" wangid="0,1,0,1,0,1,0,1"/>
   </wangset>
   <wangset name="Water" type="corner" tile="-1">
    <wangcolor name="Water" color="#ff0000" tile="-1" probability="1"/>
    <wangcolor name="Dirt" color="#00ff00" tile="-1" probability="1"/>
    <wangcolor name="Grass" color="#0000ff" tile="-1" probability="1"/>
    <wangtile tileid="0" wangid="0,3,0,3,0,3,0,3"/>
    <wangtile tileid="1" wangid="0,3,0,3,0,3,0,3"/>
    <wangtile tileid="2" wangid="0,3,0,3,0,3,0,3"/>
    <wangtile tileid="4" wangid="0,1,0,1,0,1,0,1"/>
    <wangtile tileid="12" wangid="0,2,0,1,0,2,0,2"/>
    <wangtile tileid="13" wangid="0,2,0,2,0,2,0,1"/>
    <wangtile tileid="20" wangid="0,1,0,2,0,2,0,2"/>
    <wangtile tileid="21" wangid="0,2,0,2,0,1,0,2"/>
    <wangtile tileid="28" wangid="0,2,0,2,0,2,0,2"/>
   </wangset>
   <wangset name="Unnamed Set" type="mixed" tile="-1">
    <wangcolor name="" color="#ff0000" tile="-1" probability="1"/>
   </wangset>
  </wangsets>
 </tileset>
 <tileset firstgid="129" name="overworld" tilewidth="32" tileheight="32" tilecount="40" columns="10">
  <image source="../Tiles/overworld.png" width="336" height="144"/>
 </tileset>
 <tileset firstgid="169" name="GooseLeft" tilewidth="32" tileheight="32" tilecount="1" columns="1">
  <image source="../Sprites/GooseLeft.png" width="32" height="32"/>
 </tileset>
 <tileset firstgid="170" name="GooseRight" tilewidth="32" tileheight="32" tilecount="1" columns="1">
  <image source="../Sprites/GooseRight.png" width="32" height="32"/>
 </tileset>
 <tileset firstgid="171" name="house-2.png" tilewidth="32" tileheight="32" tilecount="64" columns="8">
  <image source="../Tiles/house-2.png.png" width="256" height="256"/>
 </tileset>
 <tileset firstgid="235" name="Duck_Summoner" tilewidth="32" tileheight="32" tilecount="1" columns="1">
  <image source="../Sprites/Duck_Summoner.png" width="32" height="32"/>
 </tileset>
 <layer id="1" name="Ground" width="100" height="100">
  <data encoding="csv">
2,3,1,2,25,26,2,1,3,2,1,2,2,3,2,3,1,3,2,2,1,1,2,2,2,1,2,2,2,1,3,1,1,2,1,3,1,3,2,3,2,3,2,1,1,3,1,1,3,3,1,2,2,2,3,2,2,2,2,1,2,2,3,2,3,2,2,1,3,1,2,2,2,2,2,2,2,2,1,1,1,2,2,2,3,1,3,1,1,3,3,3,1,1,1,1,2,2,2,2,
1,2,2,3,25,26,1,1,2,3,3,3,3,1,2,1,3,3,3,2,3,2,3,3,3,1,1,3,1,3,1,2,2,2,2,1,2,2,3,3,3,2,2,2,3,2,2,1,3,3,1,2,1,3,2,2,2,2,1,2,2,2,2,2,3,2,1,2,2,1,1,3,1,3,1,3,3,1,1,2,2,1,1,3,3,1,1,2,3,2,2,3,2,3,3,2,2,3,2,2,
2,1,3,2,25,26,1,2,3,3,2,2,3,3,2,1,3,1,1,2,2,1,3,2,2,2,2,3,3,2,3,3,1,1,3,2,3,3,2,1,2,2,3,1,3,3,2,3,1,2,1,1,3,3,2,2,1,2,2,2,2,2,2,1,2,1,2,3,2,3,1,2,1,2,3,1,3,2,1,3,3,1,3,3,3,2,3,1,3,2,3,2,3,2,2,3,3,2,3,2,
2,2,1,2,25,26,3,3,3,3,1,2,1,1,2,3,1,2,3,3,2,3,3,1,2,2,3,3,1,3,1,3,1,1,3,1,3,2,3,2,2,2,2,2,1,1,3,1,3,2,3,1,2,3,3,3,3,2,2,2,2,2,3,1,2,2,3,2,1,3,3,1,1,2,1,3,3,3,2,1,3,3,2,3,2,3,1,3,3,3,2,2,1,1,2,1,2,3,2,2,
1,3,3,2,25,26,1,2,1,1,3,3,3,2,3,1,1,3,2,3,2,3,1,2,2,2,2,1,1,1,2,1,2,2,2,3,1,2,2,1,3,1,2,1,2,1,1,2,2,1,2,1,1,2,1,3,2,2,3,2,3,1,2,2,3,2,2,3,1,2,2,1,2,3,3,2,1,2,2,3,2,3,3,2,3,2,3,2,1,3,3,1,3,1,2,2,2,2,2,1,
2,1,1,3,25,26,2,1,3,1,2,1,2,1,2,1,3,2,2,2,1,1,1,2,1,1,3,1,2,1,2,1,1,1,3,2,3,3,1,3,3,1,3,1,2,3,1,3,2,2,2,1,3,3,1,1,3,1,3,3,1,3,1,1,2,3,2,1,1,3,3,3,1,2,2,3,3,2,1,2,2,2,3,3,2,3,3,1,2,3,3,3,2,3,2,1,2,3,2,2,
3,1,3,3,25,26,3,3,3,2,3,3,2,1,1,1,2,3,3,2,1,2,2,3,3,2,1,3,3,3,2,3,2,3,3,2,3,3,3,2,1,3,2,1,2,2,3,1,1,1,3,3,3,2,2,2,3,3,2,3,3,3,2,1,2,1,3,3,2,1,3,3,2,1,2,2,2,2,3,3,2,3,1,2,3,1,2,2,1,3,3,2,1,1,3,1,2,2,2,2,
2,2,2,2,25,26,1,3,1,2,1,1,1,1,3,3,2,2,1,3,3,1,3,3,2,2,1,1,1,3,2,3,1,2,1,3,2,3,2,3,2,1,3,2,2,3,2,2,1,3,3,3,2,1,3,3,3,1,1,2,3,2,2,2,1,2,1,2,3,2,1,3,1,2,1,1,1,3,1,2,1,3,3,1,3,2,1,1,2,3,3,2,3,1,2,1,3,3,1,2,
3,3,3,2,25,26,3,1,3,2,3,2,1,3,1,1,3,2,3,2,3,1,1,1,1,3,3,2,3,3,3,3,3,2,3,3,2,3,3,2,1,2,2,1,3,2,1,1,2,1,3,1,1,1,3,2,3,3,3,3,2,1,3,3,1,1,3,3,1,3,2,2,2,1,2,3,2,2,2,3,1,1,3,2,1,2,1,3,3,2,3,3,1,2,1,2,2,2,2,3,
3,3,2,1,25,19,2,2,3,3,3,3,1,2,2,2,1,3,2,3,3,3,3,2,3,3,1,2,2,3,1,1,1,3,3,3,2,3,1,3,2,1,1,2,3,2,2,2,2,3,2,1,3,3,1,3,2,1,2,3,3,3,2,3,3,2,2,1,1,1,3,3,2,2,2,1,3,2,2,3,1,2,3,2,3,2,2,3,2,3,2,3,2,3,2,1,2,2,2,2,
2,2,1,2,25,19,1,3,1,3,1,3,2,3,3,3,2,3,2,1,1,2,2,2,2,3,1,3,2,2,3,1,1,1,1,2,3,3,2,1,1,1,2,2,3,1,2,3,3,3,2,1,2,3,2,2,3,2,1,3,2,2,2,1,3,3,2,3,1,2,2,3,1,1,2,1,1,3,2,3,1,3,3,3,2,1,2,2,2,3,3,1,2,3,1,2,2,2,2,2,
3,3,2,2,25,26,3,1,2,3,2,1,2,3,1,1,3,3,3,2,1,1,2,2,1,2,1,3,3,1,1,2,2,3,2,2,3,2,3,3,3,3,2,2,1,3,3,1,2,3,1,2,3,2,3,1,3,1,2,2,1,1,2,2,1,2,1,1,3,3,1,1,3,1,3,1,1,1,1,3,1,3,2,3,3,2,3,3,3,1,2,2,1,1,3,3,3,2,2,2,
1,3,2,3,25,26,2,3,3,1,3,3,3,3,3,2,3,2,2,3,2,1,3,2,3,3,3,1,2,2,3,1,1,3,2,3,3,1,3,3,3,1,2,3,3,3,2,1,2,3,3,2,3,2,2,2,2,2,3,1,2,2,3,3,2,1,3,3,3,1,2,3,1,2,1,3,1,1,3,1,1,2,3,2,2,2,2,2,2,2,3,3,2,2,1,2,3,2,2,2,
2,2,3,1,25,26,1,3,1,1,1,2,2,2,3,3,3,2,3,3,3,2,3,3,1,3,1,3,2,3,2,3,2,2,3,3,3,1,1,2,2,3,1,1,2,3,1,2,3,3,2,3,3,1,2,3,3,3,2,2,1,2,3,3,1,3,1,3,3,3,3,2,1,2,3,3,2,2,3,1,2,3,2,3,1,3,3,1,1,2,1,1,1,2,3,2,1,1,3,1,
2,2,2,1,25,26,1,3,2,2,2,3,2,3,2,2,1,2,1,2,1,3,2,2,2,3,3,3,2,2,2,3,2,1,2,2,3,1,2,1,3,3,2,3,1,2,3,2,2,1,3,1,3,1,3,1,1,2,2,3,3,3,3,3,3,3,2,3,2,2,3,1,3,2,3,2,2,1,1,3,2,2,1,3,1,2,1,1,2,3,1,1,1,3,2,3,3,2,1,2,
1,1,3,2,25,26,2,3,3,3,2,3,2,3,2,1,3,1,2,3,2,3,1,2,3,3,1,3,2,3,1,2,1,3,3,2,3,3,1,1,2,1,2,3,1,1,3,2,3,3,2,2,3,2,2,2,3,2,2,1,3,1,3,1,2,2,3,1,2,2,3,1,2,2,1,3,1,3,1,1,3,2,3,2,3,1,3,1,3,3,1,2,2,2,1,3,2,2,3,3,
2,1,3,2,25,26,2,1,2,2,1,2,1,1,3,2,2,2,1,3,1,1,2,2,1,2,2,1,3,2,3,3,2,2,1,1,3,1,3,2,2,2,2,3,1,3,3,2,1,2,2,3,3,3,3,3,1,3,1,2,2,1,3,1,3,3,1,1,2,1,2,2,3,2,2,3,2,1,2,2,2,2,2,3,3,1,2,3,1,2,2,2,3,3,1,3,2,3,2,2,
2,3,2,1,25,26,1,2,2,3,2,1,2,2,3,3,1,1,3,2,3,1,2,2,1,3,1,3,2,3,3,3,2,1,2,3,2,1,2,2,3,2,1,3,1,3,2,1,1,2,2,1,2,2,1,1,3,3,2,1,3,2,1,3,2,2,3,1,1,3,1,1,1,3,2,2,1,2,2,1,1,1,3,3,2,3,3,3,3,3,2,3,3,1,2,2,1,3,3,1,
3,3,2,3,25,26,2,1,2,2,1,1,3,2,1,1,3,2,2,1,3,2,3,3,1,2,2,2,3,1,2,2,2,2,1,2,2,3,3,1,3,1,2,2,2,2,2,3,3,1,3,3,3,2,2,3,1,1,1,1,3,2,1,1,2,1,2,3,1,3,2,2,1,2,3,1,3,1,2,3,3,3,1,3,2,1,1,2,2,3,3,3,3,1,3,2,1,2,3,3,
1,3,2,1,25,26,1,1,1,2,3,2,3,3,2,2,3,3,2,2,3,2,2,3,3,1,1,3,3,1,2,1,2,3,2,1,3,1,1,2,3,3,1,2,1,3,1,3,2,2,2,1,3,1,1,2,1,3,3,1,3,1,1,2,3,3,3,1,2,1,2,1,2,2,2,1,3,1,3,1,3,1,2,3,1,1,1,1,2,3,2,1,3,1,2,3,3,2,2,1,
1,1,2,2,25,26,3,3,1,3,3,1,1,3,3,3,1,3,2,1,3,1,2,3,3,3,2,3,1,2,1,2,3,1,3,3,2,1,2,1,3,3,3,3,3,2,1,1,3,3,3,3,2,3,2,3,3,3,2,1,1,3,3,1,1,3,1,3,3,3,3,2,1,3,2,1,3,3,3,2,2,3,2,3,2,2,1,3,3,1,2,2,2,2,2,3,2,1,3,3,
3,2,3,3,25,26,2,1,2,1,1,1,3,2,2,2,3,3,3,2,1,3,2,3,2,2,2,2,2,2,1,3,1,3,3,3,1,3,1,3,2,1,3,2,1,3,3,2,2,1,2,3,1,2,1,1,3,3,2,1,1,3,1,3,1,3,1,2,1,1,1,2,1,3,1,1,1,3,1,2,3,2,1,3,2,2,2,1,3,3,3,3,2,1,2,3,3,3,2,3,
2,3,1,3,25,26,1,2,2,1,2,1,3,2,3,2,1,1,2,3,2,3,2,3,3,2,3,2,2,29,29,29,29,29,29,29,29,29,29,29,29,1,1,3,1,2,3,1,2,1,3,2,1,3,1,1,1,2,3,2,1,2,3,1,1,3,2,3,1,3,1,3,2,2,1,2,3,3,3,3,3,1,3,3,3,3,2,2,3,1,3,3,1,1,3,1,3,1,2,3,
2,2,3,3,25,26,1,1,3,1,2,3,3,3,3,1,2,2,1,3,3,1,3,3,3,1,29,29,29,29,29,29,29,29,29,29,29,29,29,29,29,29,29,29,2,1,1,3,2,2,3,2,3,1,1,3,3,1,3,3,3,3,1,2,3,1,2,1,3,3,1,1,3,3,1,3,1,3,1,2,3,1,1,3,1,3,3,3,1,1,2,2,3,3,2,3,3,2,2,1,
3,3,1,3,25,26,2,2,2,1,2,1,2,3,1,1,2,3,2,1,3,1,1,1,1,29,29,29,29,29,29,29,29,29,29,29,29,29,29,29,29,29,29,29,29,2,3,1,2,2,3,3,2,3,2,3,3,2,1,3,2,2,2,3,2,1,1,3,2,1,3,2,3,1,1,2,3,3,3,1,3,2,2,3,2,3,3,3,3,3,3,3,3,3,3,1,3,1,2,1,
3,1,3,3,25,26,3,2,2,2,3,2,2,2,2,2,2,3,3,3,3,1,2,1,29,29,29,29,29,29,29,29,29,29,29,29,29,29,29,29,29,29,29,29,29,29,3,1,1,2,3,2,3,3,1,1,1,3,3,3,1,2,1,1,3,1,2,1,2,1,2,3,2,3,1,1,3,2,2,3,2,2,3,3,3,3,2,2,2,2,3,3,3,1,2,1,3,3,2,1,
1,2,2,1,25,26,3,2,1,2,3,2,3,3,1,2,2,1,2,3,3,3,2,3,29,29,29,29,29,29,29,29,29,29,29,29,29,29,29,29,29,29,29,29,29,29,2,2,3,3,1,3,2,2,2,2,2,2,3,3,1,2,1,1,2,1,1,2,3,1,3,2,3,2,3,3,2,1,1,2,3,1,1,1,2,1,1,3,1,1,2,1,2,3,2,2,2,2,1,1,
2,1,1,3,25,26,2,2,1,2,1,2,2,2,1,3,2,2,2,2,2,2,1,29,29,29,29,29,29,29,29,29,29,29,29,29,29,29,29,29,29,29,29,29,29,29,2,2,3,1,3,2,1,2,1,3,3,2,1,1,1,1,2,3,1,2,2,1,2,2,2,2,2,1,2,3,3,3,3,3,3,2,1,2,3,2,1,1,2,1,3,2,3,1,1,2,2,1,1,3,
3,2,2,1,25,1610612762,1610612762,1610612762,1610612762,1610612762,1610612762,1610612762,1610612762,1610612762,1610612762,1610612762,1610612762,1610612762,1610612762,1610612762,1610612762,1610612762,1610612762,29,29,29,29,29,29,29,29,29,29,29,29,29,29,29,29,29,29,29,29,29,29,29,2,2,2,3,3,1,3,2,2,2,3,1,1,2,1,2,3,2,1,3,2,2,1,1,3,2,2,1,1,3,3,3,2,1,3,1,2,2,3,3,2,2,1,2,1,2,3,3,3,2,1,2,1,3,
3,3,3,3,25,1610612761,1610612761,1610612761,1610612761,1610612761,1610612761,1610612761,1610612761,1610612761,1610612761,1610612761,1610612761,1610612761,1610612761,1610612761,1610612761,1610612761,1610612761,29,29,29,29,29,29,29,29,29,29,29,29,29,29,29,29,29,29,29,29,29,29,3,3,1,3,3,3,3,1,1,2,3,3,3,3,2,1,3,2,2,3,3,2,2,3,2,2,3,1,1,2,3,1,3,3,1,3,2,3,1,3,3,1,2,1,2,2,3,1,1,3,1,2,3,2,2,
3,3,1,3,25,26,3,1,3,3,3,2,1,3,2,1,2,2,2,2,3,1,3,3,29,29,29,29,29,29,29,29,29,29,29,29,29,29,29,29,29,29,29,29,29,2,2,2,2,2,2,3,2,3,3,2,2,3,1,1,2,3,3,3,3,3,3,3,3,3,3,1,3,3,2,1,3,2,2,3,2,3,1,3,3,2,2,3,1,1,1,1,1,3,2,1,2,3,2,3,
2,3,2,3,25,26,3,2,2,2,1,2,2,3,3,1,2,3,2,1,3,1,2,1,3,29,29,29,29,29,29,29,29,29,29,29,29,29,29,29,29,29,29,29,29,1,3,2,3,1,3,1,3,1,2,3,2,2,2,3,2,1,3,1,3,1,2,3,3,3,3,3,3,2,2,2,1,3,3,2,3,2,3,2,3,3,1,2,1,3,2,2,1,1,3,3,2,2,1,3,
2,2,1,1,25,26,3,3,3,3,2,3,3,1,3,3,3,2,1,1,3,1,1,1,3,29,29,29,29,29,29,29,29,29,29,29,29,29,29,29,29,29,29,29,29,2,2,1,2,3,2,3,3,2,2,1,1,3,3,1,2,3,3,2,3,2,1,3,1,1,1,2,2,3,3,1,3,1,2,1,3,1,2,1,3,3,3,1,1,2,3,1,1,3,1,3,3,3,2,3,
3,2,1,2,25,26,2,2,3,3,3,1,1,2,2,2,2,2,1,1,2,3,3,3,2,3,29,29,29,29,29,29,29,29,29,29,29,29,29,29,29,29,29,29,2,3,2,2,3,3,2,1,3,2,1,1,1,1,1,3,3,3,2,2,1,2,1,2,2,2,2,3,2,1,3,3,1,3,3,2,3,2,3,2,1,1,2,2,3,3,1,1,3,3,2,1,1,3,1,3,
3,3,1,3,25,26,2,2,1,3,2,3,1,2,2,3,3,2,2,3,3,2,2,2,3,2,29,29,29,29,29,29,29,29,29,29,29,29,29,29,29,29,29,29,1,3,1,2,2,3,1,2,3,3,2,2,2,1,2,3,1,3,3,3,1,2,3,3,2,1,3,2,2,3,2,3,1,2,3,3,3,1,2,3,2,1,2,3,2,2,1,2,1,1,1,2,2,3,2,1,
2,1,3,19,19,26,3,1,3,3,2,1,3,2,3,2,1,2,1,3,2,3,1,2,2,3,2,29,29,29,29,29,29,29,29,29,29,29,29,29,29,29,29,1,2,2,2,2,1,2,1,1,2,3,2,1,2,2,1,1,1,2,2,3,3,2,3,1,3,1,2,2,1,1,2,2,3,2,3,1,1,2,1,3,3,2,2,2,3,1,2,3,3,3,3,3,3,2,3,1,
3,2,2,25,26,2,2,2,3,2,3,3,2,1,3,2,1,2,2,1,2,1,2,3,1,3,3,29,29,29,29,29,29,29,29,29,29,29,29,29,29,29,2,3,1,2,3,2,2,2,2,1,1,1,3,1,3,2,3,2,1,1,2,3,3,1,3,1,3,2,3,3,3,2,3,1,1,2,3,1,1,3,2,1,2,1,3,1,2,2,3,2,2,2,2,1,3,2,1,1,
2,2,2,25,26,2,2,3,2,1,2,1,1,2,2,2,3,3,3,3,3,1,1,1,1,2,3,3,29,29,29,29,29,29,29,29,29,29,29,29,29,2,2,2,3,3,2,3,3,3,2,3,2,3,2,3,1,3,3,2,3,2,2,1,3,3,1,1,2,1,3,2,1,3,3,2,2,1,3,3,3,2,1,1,2,3,3,1,3,2,3,3,2,3,2,1,2,3,1,2,
3,1,1,25,26,3,1,1,2,2,3,2,2,3,2,2,1,1,3,3,1,1,1,1,2,1,3,3,2,29,29,29,29,29,29,29,29,29,29,1,3,1,2,2,3,1,3,1,2,2,2,3,1,1,3,2,3,2,2,1,2,1,2,1,2,2,2,1,3,2,2,3,2,2,3,1,3,2,2,3,2,2,3,2,1,2,3,3,3,3,1,3,2,3,3,2,3,1,3,3,
1,2,3,25,26,1,3,3,1,1,2,1,3,1,3,2,3,2,1,2,2,1,2,3,1,2,3,3,1,1,3,3,3,3,2,3,2,1,3,3,1,3,1,2,3,2,2,3,2,3,2,1,2,2,3,3,1,2,2,2,2,3,1,2,1,3,1,2,2,2,1,3,2,1,1,3,3,3,3,2,3,3,3,2,2,3,2,1,3,3,3,3,2,3,2,3,1,3,2,3,
2,3,2,25,26,1,3,2,2,2,3,2,3,2,1,1,3,3,3,3,3,3,3,2,2,1,3,3,1,3,3,1,2,2,1,3,2,2,2,3,2,2,1,3,2,2,1,3,3,2,2,2,2,3,3,1,2,2,3,2,2,1,3,3,1,2,3,3,1,1,1,1,1,1,2,3,2,1,2,3,3,3,3,2,2,2,3,1,3,1,2,3,1,2,3,1,3,2,3,3,
2,2,1,25,26,3,1,2,3,2,2,3,2,3,3,2,1,3,1,1,2,2,2,2,3,2,2,1,3,2,2,2,2,2,2,1,3,1,2,1,3,3,1,2,3,3,2,3,3,3,3,2,3,3,1,2,1,2,3,2,1,3,3,3,2,3,3,1,2,3,1,1,1,1,2,3,3,3,1,2,2,2,3,1,2,3,1,3,2,1,3,2,1,2,1,3,2,1,3,2,
3,3,1,25,26,2,3,3,3,2,2,2,3,1,2,3,2,3,2,3,3,2,1,3,1,3,3,1,2,2,3,3,3,3,1,1,2,1,1,3,1,3,2,1,1,2,2,1,3,2,3,3,1,2,3,1,2,2,3,2,2,1,2,1,2,3,2,2,3,2,2,3,1,2,2,3,3,2,3,1,2,3,2,2,3,2,2,2,3,2,3,3,3,3,2,3,2,3,1,3,
3,2,3,25,26,3,3,1,3,1,2,3,2,2,2,3,1,3,2,3,2,3,3,2,3,1,1,2,3,3,1,2,3,1,3,1,3,2,3,2,3,3,3,1,2,2,1,2,3,3,3,2,1,1,2,2,2,1,3,3,3,2,2,3,3,2,2,3,2,1,2,2,2,2,3,3,2,2,1,2,2,1,2,2,3,3,2,2,2,3,3,3,3,2,1,1,2,2,2,3,
2,2,2,25,26,3,1,2,3,3,3,2,1,2,3,2,2,3,3,3,3,3,1,2,2,2,3,3,3,1,3,2,2,2,3,3,2,1,3,3,1,3,2,1,1,1,2,3,3,2,2,2,3,1,3,3,3,2,2,1,1,3,2,2,3,1,3,1,3,3,2,2,3,2,3,2,2,2,1,2,1,1,2,1,2,1,3,3,1,3,3,3,1,3,3,2,3,1,2,2,
2,1,2,25,26,3,3,2,2,2,2,3,3,3,3,3,1,3,3,3,1,2,2,3,2,1,1,3,1,3,2,3,3,3,3,3,3,2,2,3,1,1,2,2,3,2,1,2,1,2,1,2,1,3,3,3,2,3,2,1,2,3,2,1,2,3,3,3,3,2,1,3,2,1,2,1,1,3,2,3,2,3,2,2,1,3,1,1,1,3,1,2,2,1,3,3,1,2,1,1,
3,3,2,25,26,3,1,2,2,2,3,1,2,2,2,3,2,1,1,3,2,2,2,2,2,3,1,1,2,1,3,2,3,2,3,3,2,1,3,3,2,1,2,1,3,2,2,3,3,1,3,3,2,1,3,1,3,3,2,3,2,3,1,2,3,3,3,2,2,1,2,3,3,2,1,3,2,2,3,2,2,2,3,3,1,3,2,2,2,3,2,3,2,2,3,3,3,3,2,2,
3,3,3,25,26,2,3,2,1,1,3,3,3,1,3,2,2,2,1,3,3,1,1,2,3,3,3,3,3,2,3,1,3,3,1,2,1,2,1,1,2,1,3,3,2,3,2,1,2,2,3,1,1,3,2,1,3,2,1,1,2,1,1,3,2,2,2,2,1,2,1,1,3,2,2,1,2,2,2,2,3,2,2,2,2,1,3,2,2,2,2,3,2,2,1,2,3,1,1,2,
1,2,2,25,26,2,3,2,2,3,1,3,3,2,1,3,1,3,1,2,2,1,3,3,2,1,2,2,2,1,2,3,3,3,2,3,2,3,3,3,2,2,3,2,3,2,2,2,2,3,3,1,2,2,1,2,2,3,2,2,3,3,2,3,2,3,1,1,2,1,2,3,2,3,2,3,2,3,1,3,2,2,2,3,1,2,1,1,2,2,3,2,1,1,1,3,1,3,3,2,
2,3,1,25,26,3,2,2,3,1,3,1,3,3,2,1,1,1,2,2,3,2,2,3,3,2,3,3,2,1,3,1,3,1,2,1,1,1,2,2,2,3,2,3,3,1,2,2,2,3,3,2,2,1,2,3,2,1,3,2,3,3,2,3,2,3,3,1,2,1,2,2,2,3,3,1,1,3,2,3,3,3,3,2,3,1,2,2,1,2,3,3,1,3,3,2,2,3,3,1,
2,3,2,25,26,3,3,2,3,3,3,2,2,3,1,1,2,2,3,1,1,2,2,3,3,2,3,1,3,1,2,3,3,3,3,3,3,1,3,2,1,1,2,2,1,1,3,2,1,2,2,3,2,3,1,3,1,1,2,2,1,3,3,2,3,3,1,3,3,1,1,1,2,2,2,3,2,2,2,2,2,3,1,1,3,2,3,3,1,3,2,2,3,2,3,2,3,3,2,3,
1,3,2,25,26,2,3,1,3,2,3,3,2,3,3,3,1,3,2,3,1,2,2,2,2,2,2,3,1,1,3,3,1,3,2,3,2,2,2,2,1,3,1,3,1,2,2,2,2,1,2,2,3,2,3,2,2,1,2,3,2,1,3,1,2,3,2,2,1,2,2,3,1,2,2,2,2,3,2,2,2,3,1,3,3,2,2,3,1,2,1,2,3,3,2,2,1,3,1,3,
2,3,3,25,26,3,1,1,3,1,3,3,1,3,2,3,3,1,1,2,2,1,2,3,2,2,3,1,2,2,3,1,3,2,2,1,1,2,2,3,2,3,1,1,3,2,2,3,3,3,2,1,3,2,2,3,2,1,2,2,2,2,3,3,2,3,3,2,2,3,1,2,3,1,3,1,3,3,3,2,2,3,3,3,3,2,3,1,3,1,1,3,1,3,1,2,3,2,1,2,
1,3,2,25,26,1,3,2,1,2,2,2,1,2,1,2,3,3,1,3,3,1,2,3,3,3,3,3,2,1,1,2,2,2,3,1,1,1,1,2,1,3,2,3,2,2,2,3,3,1,3,2,2,2,2,2,2,2,1,3,2,2,2,2,1,1,2,3,2,3,2,1,2,3,2,3,2,2,3,3,2,3,3,3,1,2,2,2,3,1,1,1,2,1,3,2,3,2,1,3,
3,3,2,25,26,3,2,3,1,2,1,3,3,2,2,2,3,2,3,2,3,2,2,2,2,3,3,1,3,2,3,3,2,3,1,2,2,2,3,1,3,2,2,2,3,2,2,3,3,2,2,2,2,2,3,2,2,1,2,3,2,3,1,2,2,2,2,2,2,2,2,3,3,3,2,2,2,2,3,1,2,2,2,3,2,3,3,1,3,1,3,1,3,3,3,3,3,2,3,2,
2,3,1,25,26,2,1,3,1,2,3,3,3,2,2,1,3,3,1,3,3,1,2,2,3,2,3,3,3,3,3,3,3,3,3,3,1,3,3,2,2,3,3,3,2,2,2,3,1,3,1,3,3,2,1,2,3,3,2,2,1,2,1,2,3,3,3,2,2,3,2,2,3,2,3,2,2,1,2,1,1,1,3,2,2,2,2,3,2,1,1,2,3,2,1,2,1,2,3,1,
3,3,2,25,26,3,2,2,3,2,3,2,2,2,2,2,3,2,2,1,1,2,3,1,3,2,3,2,2,2,3,3,3,2,2,3,3,1,1,2,1,2,2,2,2,1,3,2,2,2,1,2,3,2,2,2,2,2,2,3,1,3,1,1,3,2,2,1,3,2,2,2,2,2,2,3,3,3,3,2,1,1,3,2,2,3,3,1,1,3,2,1,3,2,3,3,2,3,1,3,
3,1,2,25,26,2,2,3,3,2,3,2,3,3,3,1,1,3,1,1,2,1,2,1,2,1,1,3,3,3,2,1,3,2,2,3,3,2,3,3,1,1,2,2,2,1,1,1,3,2,3,1,3,3,3,1,2,1,1,3,3,2,1,2,3,3,2,2,2,2,3,2,2,3,3,1,1,3,2,2,3,2,2,2,2,3,3,3,1,1,2,1,1,2,2,1,3,3,3,2,
2,3,2,25,26,2,1,1,2,3,3,1,3,1,2,1,2,1,3,3,1,2,3,1,3,3,2,3,3,3,1,3,2,3,2,3,2,2,1,3,3,2,1,3,3,1,2,3,1,2,3,2,3,2,3,2,3,1,2,3,3,2,1,2,2,2,1,1,2,2,2,2,1,1,1,2,2,2,3,2,1,2,2,3,1,2,1,2,1,3,3,1,3,3,1,1,1,2,3,3,
2,2,2,25,26,2,3,2,1,2,3,3,2,3,1,3,3,1,3,1,1,1,3,1,2,3,2,1,1,2,2,3,2,1,2,3,3,2,1,3,3,1,1,1,3,3,2,2,2,3,1,3,2,1,2,3,1,3,2,1,3,3,3,3,1,1,2,2,3,2,1,2,2,2,1,1,3,2,1,1,2,3,1,3,3,2,3,3,3,2,3,2,1,3,3,3,3,3,3,2,
3,3,2,25,26,2,2,1,2,1,3,1,1,3,1,2,3,2,3,2,3,2,3,3,3,2,2,3,3,2,2,2,3,1,3,2,1,1,2,1,1,3,2,3,1,2,2,2,1,3,2,2,1,3,1,3,2,3,1,2,2,3,2,2,3,3,1,2,1,2,3,1,1,2,2,2,3,3,2,3,2,3,3,2,2,3,2,1,2,1,2,3,2,2,1,2,2,3,1,2,
2,3,2,25,26,1,3,2,1,1,3,3,1,3,1,3,3,3,3,2,1,1,1,1,3,3,1,1,3,3,1,2,3,2,1,3,3,2,3,1,2,2,1,2,3,3,1,3,3,3,1,2,3,3,2,3,3,2,2,3,3,1,2,2,2,3,1,3,2,3,2,3,3,1,2,3,2,3,1,3,3,3,2,3,3,3,2,3,2,2,3,1,1,2,3,2,3,1,2,1,
2,3,2,25,26,2,1,2,3,2,3,2,1,2,2,3,2,2,2,2,2,2,3,1,1,3,2,1,3,3,2,3,1,3,3,1,2,2,3,2,2,1,1,3,2,1,2,3,3,1,1,1,2,1,2,1,1,3,2,3,2,2,2,1,1,2,2,1,2,2,2,3,2,3,1,3,3,2,3,2,1,2,3,2,1,2,2,2,3,1,1,1,3,3,3,1,3,2,1,2,
3,3,2,25,26,1,2,3,3,1,3,1,2,2,3,3,3,1,3,1,3,2,3,1,2,3,2,3,3,1,3,3,3,3,2,1,2,2,1,1,2,2,3,2,2,3,3,3,2,3,3,3,3,2,2,1,3,1,2,1,3,2,1,1,3,3,3,3,2,3,3,3,3,2,3,3,2,3,1,1,2,1,2,2,2,2,2,2,2,2,2,3,3,3,1,2,3,2,1,2,
2,2,1,25,26,1,2,1,2,2,1,3,1,3,3,2,2,3,3,2,1,3,3,3,1,1,1,2,3,2,1,3,2,3,1,2,3,3,2,2,3,1,3,1,3,3,2,1,3,1,2,3,3,3,2,1,3,3,1,2,3,2,2,1,2,3,2,3,1,2,3,3,3,2,2,2,3,3,1,2,3,1,2,2,2,2,1,2,3,2,3,1,2,2,2,2,1,1,1,1,
2,3,2,25,26,1,2,2,3,1,3,3,2,1,1,2,3,2,1,1,3,1,3,1,1,1,2,1,1,1,3,1,2,3,1,2,3,3,2,2,3,1,3,3,3,3,2,1,2,1,2,3,3,3,3,2,2,1,3,3,2,1,1,2,3,1,3,3,3,3,3,3,2,3,2,2,3,2,2,2,2,2,3,3,2,2,3,2,2,2,1,1,3,2,3,1,2,3,1,2,
2,3,3,25,26,1,2,3,3,3,1,2,3,2,3,1,3,2,2,1,3,3,1,2,1,3,3,2,3,1,3,3,2,3,2,2,3,3,2,1,2,2,2,3,3,2,1,3,1,3,2,1,3,2,1,2,1,2,3,3,3,3,2,3,3,1,3,2,3,2,2,2,2,1,2,2,2,2,2,3,2,2,3,2,2,1,3,2,2,2,2,2,2,2,2,3,3,2,1,3,
1,1,1,25,26,1,1,2,2,1,2,1,2,3,3,3,3,3,1,1,1,2,1,2,2,2,3,3,2,2,3,2,3,2,3,2,1,2,2,1,2,2,2,3,2,2,3,3,3,1,2,2,1,2,3,3,1,2,2,3,3,2,3,3,2,3,3,1,2,2,1,2,2,2,2,2,2,1,2,2,2,2,2,2,3,2,2,2,3,2,2,1,3,1,3,2,3,3,3,3,
1,1,2,25,26,3,3,3,1,3,1,3,3,2,3,3,1,1,2,1,2,3,3,2,2,1,3,1,1,3,1,3,3,1,3,3,1,1,3,2,3,1,1,2,3,3,1,2,2,2,3,2,2,3,2,1,1,1,2,2,3,3,1,2,3,2,2,2,1,3,2,1,3,1,1,2,3,3,2,3,1,2,3,3,2,3,2,2,3,2,1,2,3,3,3,3,2,3,1,2,
3,1,2,25,26,3,2,2,2,3,3,3,2,3,2,3,1,1,3,1,1,1,3,1,2,2,3,2,3,3,2,3,1,3,2,2,2,1,2,1,2,2,3,1,3,1,1,1,3,1,3,3,1,2,1,3,3,2,1,3,3,1,1,1,3,1,3,3,1,1,2,2,1,2,3,3,3,2,1,1,3,2,2,2,3,2,2,3,3,2,2,3,2,1,3,2,1,1,2,2,
2,1,2,25,26,3,2,2,2,2,3,3,2,3,2,2,1,3,2,3,2,2,2,3,2,3,2,2,2,3,1,1,3,1,2,2,3,1,3,3,3,2,1,1,2,2,1,2,2,2,2,3,3,3,3,2,3,1,1,3,2,2,3,2,1,1,3,2,3,3,3,3,1,3,1,2,1,3,2,2,2,3,2,3,2,1,2,3,2,2,2,2,2,2,2,2,2,2,3,1,
3,3,2,25,26,2,1,3,2,1,2,3,2,1,1,1,3,2,1,2,2,2,2,1,2,2,2,3,3,2,1,2,3,3,3,1,3,2,3,3,2,3,2,1,2,2,2,3,3,3,3,2,2,3,2,3,2,3,3,3,3,2,2,3,3,1,3,2,3,1,3,3,2,2,2,2,2,3,3,2,1,3,2,1,1,2,3,2,2,3,3,3,1,2,3,3,3,1,1,2,
3,1,3,25,26,3,3,2,1,2,1,2,2,3,2,3,3,1,1,2,2,1,1,2,1,2,3,1,3,3,1,1,3,1,2,3,3,1,3,3,3,1,1,1,2,3,3,2,2,3,3,2,2,1,2,1,3,3,2,1,1,1,3,2,1,3,1,1,3,2,1,3,3,1,1,1,3,3,3,3,1,3,3,3,2,3,3,2,3,3,1,3,3,2,1,1,2,3,2,3,
2,3,3,25,26,3,2,2,3,2,3,1,2,1,3,2,3,2,3,2,3,3,2,1,3,2,3,1,2,2,2,2,1,3,3,3,3,1,1,1,3,3,2,2,3,3,3,3,2,2,2,1,1,3,2,3,1,3,3,2,1,2,3,2,3,1,1,3,2,1,1,3,3,3,1,3,2,3,3,2,2,2,2,2,3,2,1,2,2,3,3,2,3,1,2,2,1,2,1,3,
2,3,2,25,26,1,3,2,2,1,2,3,1,2,3,2,2,2,2,2,2,2,2,1,3,3,3,2,2,2,2,3,2,1,3,2,2,3,2,2,3,2,1,3,2,3,2,2,1,2,2,2,1,2,2,3,3,3,2,2,2,3,1,3,1,1,1,1,3,1,1,3,2,3,1,3,1,2,2,3,3,3,3,3,1,1,2,1,1,1,2,2,3,2,1,1,2,2,3,2,
3,3,2,25,26,3,3,1,3,2,1,2,3,2,2,1,3,3,2,2,2,2,3,1,2,1,2,2,2,3,1,2,1,2,2,1,1,3,3,3,3,1,2,2,2,2,3,3,3,2,3,1,1,2,2,1,1,3,3,2,1,3,3,2,3,3,2,1,2,1,2,1,3,3,1,2,3,1,3,3,1,2,1,3,2,3,3,3,3,1,1,3,2,3,3,1,3,3,1,1,
2,1,2,25,26,3,2,2,1,3,3,1,2,3,2,3,2,2,2,3,2,3,2,3,2,3,3,3,2,2,1,2,1,2,3,3,2,3,1,1,1,2,3,2,2,1,3,1,2,3,2,2,3,1,3,3,3,2,3,2,3,1,3,3,2,2,2,2,2,2,2,2,2,2,2,2,3,2,1,3,1,1,2,2,2,3,2,2,3,2,2,3,1,3,1,2,3,1,1,3,
1,1,2,25,26,2,3,3,2,2,3,2,2,3,1,3,3,0,2,2,2,1,2,3,2,2,2,3,2,2,3,3,1,3,2,1,3,3,2,3,2,2,1,2,3,3,3,2,1,1,2,2,2,1,1,1,2,2,3,1,1,3,2,3,3,3,1,3,2,1,3,2,2,3,3,2,2,1,2,3,3,1,2,3,2,1,2,3,2,1,3,1,1,3,2,2,2,3,2,2,
2,2,1,25,26,1,2,2,1,3,2,1,3,2,1,2,29,29,29,29,29,29,29,2,2,1,1,1,1,3,2,2,2,1,2,2,2,3,3,3,3,1,2,2,3,2,3,3,2,3,2,3,2,1,3,1,3,3,2,3,1,3,3,1,3,3,1,1,3,3,3,3,3,1,1,3,2,2,3,1,1,1,3,3,2,3,3,1,1,1,2,2,3,2,3,3,1,1,2,2,
3,1,2,25,26,2,2,3,1,2,3,2,2,3,2,2,29,5,5,5,5,29,29,29,2,3,1,2,2,1,1,3,1,3,2,1,2,2,3,3,1,2,1,1,3,3,2,1,3,1,2,3,2,1,2,3,2,3,3,2,3,2,2,1,3,3,3,3,2,1,3,3,2,2,1,1,3,2,2,1,2,1,2,1,3,1,3,2,3,1,3,1,2,1,2,3,2,1,2,3,
2,1,2,25,26,3,1,3,3,2,1,2,2,3,2,2,29,29,29,29,5,5,29,29,1,3,2,3,3,3,3,2,2,3,2,2,2,3,3,3,1,2,3,2,3,2,1,1,1,1,1,2,1,2,2,2,1,2,1,1,3,2,1,1,2,2,2,3,3,1,2,3,1,2,3,3,3,3,3,2,3,3,1,1,1,2,1,2,3,3,2,1,2,1,2,1,1,2,3,1,
2,2,3,25,26,3,3,3,3,2,2,2,2,1,3,2,29,29,29,29,29,29,29,29,3,3,2,3,1,3,3,2,3,2,2,2,3,2,2,3,1,2,1,2,3,2,3,3,3,2,1,3,2,2,2,1,1,3,3,3,3,3,1,2,2,1,3,3,3,3,3,1,1,3,1,1,3,1,3,1,3,1,1,3,2,3,2,3,3,1,3,3,2,1,1,1,1,1,3,2,
2,3,2,25,26,2,3,2,3,1,2,2,2,2,3,2,29,29,29,29,29,29,29,29,3,2,3,1,1,2,2,3,3,1,2,3,2,2,2,3,2,3,1,3,3,1,3,3,3,3,2,2,2,2,3,1,2,1,2,1,1,2,1,1,3,2,3,1,1,3,2,2,3,1,3,1,2,3,1,1,3,1,3,2,1,3,1,1,1,3,2,1,2,3,3,2,1,2,2,3,
2,1,3,25,26,1,1,3,1,2,1,3,1,2,2,3,29,29,29,29,29,29,29,29,3,3,3,2,2,1,1,3,2,1,2,2,2,2,3,2,2,2,2,1,2,2,2,3,2,3,3,1,2,2,1,3,2,2,1,2,2,3,2,2,1,3,2,2,3,3,1,2,3,2,1,2,1,3,3,1,2,3,2,1,2,3,3,2,3,2,2,3,1,2,3,1,2,1,2,2,
2,1,3,25,26,2,3,1,3,2,2,3,1,2,3,2,3,29,29,29,29,29,29,29,2,2,3,2,3,1,3,3,1,3,1,2,2,3,3,2,3,1,1,3,2,3,1,2,3,3,3,2,1,3,3,2,1,2,3,1,2,1,3,3,1,2,3,2,1,2,1,3,2,3,1,2,1,1,1,2,1,2,3,3,3,1,3,3,2,1,1,2,2,3,3,3,3,1,2,2,
3,1,3,25,26,1,3,1,1,2,2,2,1,3,2,1,2,2,3,2,2,1,2,1,1,1,3,1,1,3,2,3,2,1,3,1,3,2,1,2,3,3,1,3,3,1,3,2,2,2,3,2,2,2,2,1,2,3,1,2,2,1,2,3,1,2,3,3,1,3,3,2,1,1,2,3,3,1,2,2,1,2,3,3,3,1,2,2,3,2,2,1,1,1,2,2,3,3,1,1,
1,1,3,25,26,3,2,2,2,3,2,2,3,3,1,2,3,3,3,1,2,3,2,3,2,3,2,2,1,1,3,1,2,2,3,1,2,1,2,2,2,3,3,3,3,2,3,2,1,3,2,2,3,2,1,2,3,3,2,3,1,3,3,3,3,2,3,3,1,3,3,3,3,2,2,2,2,3,2,1,2,1,1,2,3,3,3,1,3,2,1,1,2,2,2,2,1,3,1,2,
3,1,2,25,26,3,2,1,3,1,3,2,2,3,2,1,2,1,2,3,2,3,2,3,3,3,1,1,3,1,3,3,2,2,2,2,1,2,2,1,2,2,2,3,3,2,2,2,3,2,1,2,2,3,3,1,2,3,2,2,3,1,2,3,3,2,3,1,1,2,1,2,3,2,2,2,3,2,1,2,2,3,1,3,3,2,3,1,1,2,3,1,1,2,1,3,3,2,1,2,
1,3,3,25,26,1,2,3,2,2,1,3,2,1,3,2,3,3,2,3,3,3,2,2,3,3,3,2,1,2,1,3,3,1,2,1,3,2,2,2,2,2,2,1,2,3,1,2,2,3,2,2,3,3,3,1,1,3,2,1,1,2,2,3,1,1,2,3,3,2,2,3,1,2,3,3,3,2,2,2,2,1,2,2,3,1,2,1,1,1,2,2,1,2,2,1,2,2,3,3,
1,3,3,25,26,3,3,3,3,2,1,2,1,3,2,3,1,2,2,1,2,3,2,1,3,3,2,2,3,3,2,3,3,3,1,3,3,2,3,2,3,3,2,1,3,3,1,2,2,3,2,3,2,3,3,2,3,3,3,1,2,3,3,3,3,3,3,3,3,3,3,2,3,2,2,1,3,3,2,3,2,2,1,1,2,2,2,3,2,2,2,1,3,2,3,3,2,2,3,3,
2,2,2,25,26,1,1,3,3,1,2,3,2,1,1,1,3,3,2,3,3,3,1,1,3,3,2,3,1,2,2,1,2,1,3,3,3,2,1,3,2,1,3,2,1,3,3,2,2,1,2,1,1,3,3,1,2,2,3,2,1,2,3,2,2,2,1,3,2,3,3,3,1,1,1,2,1,2,2,2,3,3,1,1,1,2,2,1,3,1,3,2,2,3,1,3,3,1,2,2,
2,1,2,25,26,2,3,2,2,1,2,2,3,3,3,2,2,3,3,3,3,3,1,3,2,2,3,1,2,1,2,1,2,2,2,3,3,2,3,1,3,2,1,2,2,2,3,1,2,1,1,2,2,1,2,3,1,2,3,3,1,1,1,2,2,2,1,2,3,2,1,2,2,3,1,2,2,1,2,3,1,2,3,2,2,2,1,2,2,2,2,1,1,1,3,3,3,2,2,3,
3,2,2,25,26,1,3,1,2,3,2,1,1,2,3,3,2,2,3,2,3,1,1,2,3,3,1,1,3,3,1,2,2,2,2,3,3,2,3,2,1,1,3,3,2,2,3,1,3,1,2,2,3,2,2,1,3,1,3,1,1,3,1,1,3,3,2,3,2,1,1,2,3,1,3,3,3,3,1,3,1,2,3,3,2,1,2,3,1,3,1,2,3,2,3,2,1,2,1,1,
1,2,2,25,26,2,1,1,2,3,3,3,3,2,3,1,3,3,2,3,1,3,2,3,2,2,2,3,2,3,2,3,3,1,1,2,3,2,2,1,1,3,2,2,3,2,2,1,3,1,3,2,2,3,3,1,2,3,3,1,3,1,2,3,2,1,1,2,2,3,3,3,3,3,2,1,1,2,2,1,3,1,2,1,3,2,1,3,3,3,2,1,3,3,3,2,1,2,2,1,
1,1,3,25,26,3,2,3,3,1,2,3,3,3,1,3,3,3,3,1,3,2,1,3,1,3,2,2,3,3,2,2,3,2,2,3,3,2,3,2,1,1,3,1,1,3,2,3,1,3,2,3,2,1,2,1,1,1,1,3,2,1,3,1,2,3,2,2,3,1,2,1,2,3,1,3,1,2,1,3,2,3,3,3,2,3,3,3,2,2,3,1,2,1,2,2,1,2,3,1,
2,3,3,25,26,2,1,2,2,3,3,2,3,2,3,2,3,3,2,2,3,3,2,2,1,3,3,3,2,2,3,1,2,1,2,2,1,3,2,3,3,3,2,3,2,3,3,3,2,2,3,1,3,1,3,2,1,2,2,2,2,2,1,3,1,2,2,3,3,1,2,1,2,3,3,2,2,2,3,1,2,1,1,3,3,3,2,3,1,3,2,3,1,1,2,2,3,3,1,3,
2,2,2,25,26,2,1,2,2,2,1,3,1,3,1,1,1,2,3,1,1,1,2,3,1,1,2,1,2,1,2,1,2,2,2,1,1,3,3,2,3,2,3,1,2,3,3,3,3,1,2,2,2,1,1,2,2,2,2,3,3,3,1,3,3,2,1,2,1,1,2,3,1,1,3,3,3,1,3,3,2,1,3,3,2,1,2,3,3,3,3,3,3,2,2,1,2,3,3,2,
2,2,1,25,26,1,3,2,1,1,1,3,1,3,2,1,1,1,3,2,2,2,2,1,2,3,2,2,1,3,3,3,3,2,2,3,2,1,1,3,1,3,2,1,1,1,1,2,1,1,3,1,1,3,3,3,3,3,1,3,2,2,2,2,2,3,3,2,2,1,3,1,3,3,3,2,2,3,1,2,1,1,1,2,3,3,3,2,3,3,1,3,2,3,2,2,2,1,3,2,
1,2,2,25,26,3,2,1,3,2,3,3,3,2,2,3,3,2,1,2,2,3,3,2,3,2,2,1,3,2,3,2,2,2,1,2,1,2,3,1,1,2,3,2,2,1,3,1,3,2,2,3,3,3,2,2,3,1,1,1,1,2,2,3,2,2,1,3,2,1,2,2,3,3,3,1,3,3,3,1,3,3,1,3,1,1,1,3,1,1,2,3,3,1,3,3,2,3,2,3,
2,2,25,25,26,3,2,2,3,2,3,1,1,2,2,2,1,2,2,2,3,1,3,2,2,2,3,2,3,1,2,3,2,2,2,2,3,1,1,2,3,2,1,2,3,1,1,2,1,2,3,2,2,1,1,1,2,3,3,2,2,3,3,3,1,1,1,3,2,3,1,2,1,2,3,1,2,2,1,3,2,2,2,3,2,2,3,3,3,3,1,3,2,1,2,1,3,2,3,3
</data>
 </layer>
 <layer id="4" name="Enemies" width="100" height="100">
  <data encoding="csv">
0,0,0,0,0,0,0,0,0,0,0,0,0,0,0,0,0,0,0,0,0,0,0,0,0,0,0,0,0,0,0,0,0,0,0,0,0,0,0,0,0,0,0,0,0,0,0,0,0,0,0,0,0,0,0,0,0,0,0,0,0,0,0,0,0,0,0,0,0,0,0,0,0,0,0,0,0,0,0,0,0,0,0,0,0,0,0,0,0,0,0,0,0,0,0,0,0,0,0,0,
0,0,0,0,0,0,0,0,0,0,0,0,0,0,0,0,0,0,0,0,0,0,0,0,0,0,0,0,0,0,0,0,0,0,0,0,0,0,0,0,0,0,0,0,0,0,0,0,0,0,0,0,0,0,0,0,0,0,0,0,0,0,0,0,0,0,0,0,0,0,0,0,0,0,0,0,0,0,0,0,0,0,0,0,0,0,0,0,0,0,0,0,0,0,0,0,0,0,0,0,
0,0,0,0,0,0,0,0,0,0,0,0,0,0,0,0,0,0,0,0,0,0,0,0,0,0,0,0,0,0,0,0,0,0,0,0,0,0,0,0,0,0,0,0,0,0,0,0,0,0,0,0,0,0,0,0,0,0,0,0,0,0,0,0,0,0,0,0,0,0,0,0,0,0,0,0,0,0,0,0,0,0,0,0,0,0,0,0,0,0,0,0,0,0,0,0,0,0,0,0,
0,0,0,0,0,0,0,0,0,0,0,0,0,0,0,0,0,0,0,0,0,0,0,0,0,0,0,0,0,0,0,0,0,0,0,0,0,0,0,0,0,0,0,0,0,0,0,0,0,0,0,0,0,0,0,0,0,0,0,0,0,0,0,0,0,0,0,0,0,0,0,0,0,0,0,0,0,0,0,0,0,0,0,0,0,0,0,0,0,0,0,0,0,0,0,0,0,0,0,0,
0,0,0,0,0,0,0,0,0,0,0,0,0,0,0,0,0,0,0,0,0,0,0,0,0,0,0,0,0,0,0,0,0,0,0,0,0,0,0,0,0,0,0,0,0,0,0,0,0,0,0,0,0,0,0,0,0,0,0,0,0,0,0,0,0,0,0,0,0,0,0,0,0,0,0,0,0,0,0,0,0,0,0,0,0,0,0,0,0,0,0,0,0,0,0,0,0,0,0,0,
0,0,0,0,0,0,0,0,0,0,0,0,0,0,0,0,0,0,0,0,0,0,0,0,0,0,0,0,0,0,0,0,0,0,0,0,0,0,0,0,0,0,0,0,0,0,0,0,0,0,0,0,0,0,0,0,0,0,0,0,0,0,0,0,0,0,0,0,0,0,0,0,0,0,0,0,0,0,0,0,0,0,0,0,0,0,0,0,0,0,0,0,0,0,0,0,0,0,0,0,
0,0,0,0,0,0,0,0,0,0,0,0,0,0,0,0,0,0,0,0,0,0,0,0,0,0,0,0,0,0,0,0,0,0,0,0,0,0,0,0,0,0,0,0,0,0,0,0,0,0,0,0,0,0,0,0,0,0,0,0,0,0,0,0,0,0,0,0,0,0,0,0,0,0,0,0,0,0,0,0,0,0,0,0,0,0,0,0,0,0,0,0,0,0,0,0,0,0,0,0,
0,0,0,0,0,0,0,0,0,0,0,0,0,0,0,0,0,0,0,0,0,0,0,0,0,0,0,0,0,0,0,0,0,0,0,0,0,0,0,0,0,0,0,0,0,0,0,0,0,0,0,0,0,0,0,0,0,0,0,0,0,0,0,0,0,0,0,0,0,0,0,0,0,0,0,0,0,0,0,0,0,0,0,0,0,0,0,0,0,0,0,0,0,0,0,0,0,0,0,0,
0,0,0,0,0,0,0,0,0,0,0,0,0,0,0,0,0,0,0,0,0,0,0,0,0,0,0,0,0,0,0,0,0,0,0,0,0,0,0,0,0,0,0,0,0,0,0,0,0,0,0,0,0,0,0,0,0,0,0,0,0,0,0,0,0,0,0,0,0,0,0,0,0,0,0,0,0,0,0,0,0,0,0,0,0,0,0,0,0,0,0,0,0,0,0,0,0,0,0,0,
0,0,0,0,0,0,0,0,0,0,0,0,0,0,0,0,0,0,0,0,0,0,0,0,0,0,0,0,0,0,0,0,0,0,0,0,0,0,0,0,0,0,0,0,0,0,0,0,0,0,0,0,0,0,0,0,0,0,0,0,0,0,0,0,0,0,0,0,0,0,0,0,0,0,0,0,0,0,0,0,0,0,0,0,0,0,0,0,0,0,0,0,0,0,0,0,0,0,0,0,
0,0,0,0,0,0,0,0,0,0,0,0,0,0,0,0,0,0,0,0,0,0,0,0,0,0,0,0,0,0,0,0,0,0,0,0,0,0,0,0,0,0,0,0,0,0,0,0,0,0,0,0,0,0,0,0,0,0,0,0,0,0,0,0,0,0,0,0,0,0,0,0,0,0,0,0,0,0,0,0,0,0,0,0,0,0,0,0,0,0,0,0,0,0,0,0,0,0,0,0,
0,0,0,0,0,0,0,0,0,0,0,0,0,0,0,0,0,0,0,0,0,0,0,0,0,0,0,0,0,0,0,0,0,0,0,0,0,0,0,0,0,0,0,0,0,0,0,0,0,0,0,0,0,0,0,0,0,0,0,0,0,0,0,0,0,0,0,0,0,0,0,0,0,0,0,0,0,0,0,0,0,0,0,0,0,0,0,0,0,0,0,0,0,0,0,0,0,0,0,0,
0,0,0,0,0,0,0,0,0,0,0,0,0,0,0,0,0,0,0,0,0,0,0,0,0,0,0,0,0,0,0,0,0,0,0,0,0,0,0,0,0,0,0,0,0,0,0,0,0,0,0,0,0,0,0,0,0,0,0,0,0,0,0,0,0,0,0,0,0,0,0,0,0,0,0,0,0,0,0,0,0,0,0,0,0,0,0,0,0,0,0,0,0,0,0,0,0,0,0,0,
0,0,0,0,0,0,0,0,0,0,0,0,0,0,0,0,0,0,0,0,0,0,0,0,0,0,0,0,0,0,0,0,0,0,0,0,0,0,0,0,0,0,0,0,0,0,0,0,0,0,0,0,0,0,0,0,0,0,0,0,0,0,0,0,0,0,0,0,0,0,0,0,0,0,0,0,0,0,0,0,0,0,0,0,0,0,0,0,0,0,0,0,0,0,0,0,0,0,0,0,
0,0,0,0,0,0,0,0,0,0,0,0,0,0,0,0,0,0,0,0,0,0,0,0,0,0,0,0,0,0,0,0,0,0,0,0,0,0,0,0,0,0,0,0,0,0,0,0,0,0,0,0,0,0,0,0,0,0,0,0,0,0,0,0,0,0,0,0,0,0,0,0,0,0,0,0,0,0,0,0,0,0,0,0,0,0,0,0,0,0,0,0,0,0,0,0,0,0,0,0,
0,0,0,0,0,0,0,0,0,0,0,0,0,0,0,0,0,0,0,0,0,0,0,0,0,0,0,0,0,0,0,0,0,0,0,0,0,0,0,0,0,0,0,0,0,0,0,0,0,0,0,0,0,0,0,0,0,0,0,0,0,0,0,0,0,0,0,0,0,0,0,0,0,0,0,0,0,0,0,0,0,0,0,0,0,0,0,0,0,0,0,0,0,0,0,0,0,0,0,0,
0,0,0,0,0,0,0,0,0,0,0,0,0,0,0,0,0,0,0,0,0,0,0,0,0,0,0,0,0,0,0,0,0,0,0,0,0,0,0,0,0,0,0,0,0,0,0,0,0,0,0,0,0,0,0,0,0,0,0,0,0,0,0,0,0,0,0,0,0,0,0,0,0,0,0,0,0,0,0,0,0,0,0,0,0,0,0,0,0,0,0,0,0,0,0,0,0,0,0,0,
0,0,0,0,0,0,0,0,0,0,0,0,0,0,0,0,0,0,0,0,0,0,0,0,0,0,0,0,0,0,0,0,0,0,0,0,0,0,0,0,0,0,0,0,0,0,0,0,0,0,0,0,0,0,0,0,0,0,0,0,0,0,0,0,0,0,0,0,0,0,0,0,0,0,0,0,0,0,0,0,0,0,0,0,0,0,0,0,0,0,0,0,0,0,0,0,0,0,0,0,
0,0,0,0,0,0,0,0,0,0,0,0,0,0,0,0,0,0,0,0,0,0,0,0,0,0,0,0,0,0,0,0,0,0,0,0,0,0,0,0,0,0,0,0,0,0,0,0,0,0,0,0,0,0,0,0,0,0,0,0,0,0,0,0,0,0,0,0,0,0,0,0,0,0,0,0,0,0,0,0,0,0,0,0,0,0,0,0,0,0,0,0,0,0,0,0,0,0,0,0,
0,0,0,0,0,0,0,0,0,0,0,0,0,0,0,0,0,0,0,0,0,0,0,0,0,0,0,0,0,0,0,0,0,0,0,0,0,0,0,0,0,0,0,0,0,0,0,0,0,0,0,0,0,0,0,0,0,0,0,0,0,0,0,0,0,0,0,0,0,0,0,0,0,0,0,0,0,0,0,0,0,0,0,0,0,0,0,0,0,0,0,0,0,0,0,0,0,0,0,0,
0,0,0,0,0,0,0,0,0,0,0,0,0,0,0,0,0,0,0,0,0,0,0,0,0,0,0,0,0,0,0,0,0,0,0,0,0,0,0,0,0,0,0,0,0,0,0,0,0,0,0,0,0,0,0,0,0,0,0,0,0,0,0,0,0,0,0,0,0,0,0,0,0,0,0,0,0,0,0,0,0,0,0,0,0,0,0,0,0,0,0,0,0,0,0,0,0,0,0,0,
0,0,0,0,0,0,0,0,0,0,0,0,0,0,0,0,0,0,0,0,0,0,0,0,0,0,0,0,0,0,0,0,0,0,0,0,0,0,0,0,0,0,0,0,0,0,0,0,0,0,0,0,0,0,0,0,0,0,0,0,0,0,0,0,0,0,0,0,0,0,0,0,0,0,0,0,0,0,0,0,0,0,0,0,0,0,0,0,0,0,0,0,0,0,0,0,0,0,0,0,
0,0,0,0,0,0,0,0,0,0,0,0,0,0,0,0,0,0,0,0,0,0,0,0,0,0,0,0,0,0,0,0,0,0,0,0,0,0,0,0,0,0,0,0,0,0,0,0,0,0,0,0,0,0,0,0,0,0,0,0,0,0,0,0,0,0,0,0,0,0,0,0,0,0,0,0,0,0,0,0,0,0,0,0,0,0,0,0,0,0,0,0,0,0,0,0,0,0,0,0,
0,0,0,0,0,0,0,0,0,0,0,0,0,0,0,0,0,0,0,0,0,0,0,0,0,0,0,0,0,0,0,0,0,0,0,0,0,0,0,0,0,0,0,0,0,0,0,0,0,0,0,0,0,0,0,0,0,0,0,0,0,0,0,0,0,0,0,0,0,0,0,0,0,0,0,0,0,0,0,0,0,0,0,0,0,0,0,0,0,0,0,0,0,0,0,0,0,0,0,0,
0,0,0,0,0,0,0,0,0,0,0,0,0,0,0,0,0,0,0,0,0,0,0,0,0,0,0,0,0,0,0,0,0,0,0,0,0,0,0,0,0,0,0,0,0,0,0,0,0,0,0,0,0,0,0,0,0,0,0,0,0,0,0,0,0,0,0,0,0,0,0,0,0,0,0,0,0,0,0,0,0,0,0,0,0,0,0,0,0,0,0,0,0,0,0,0,0,0,0,0,
0,0,0,0,0,0,0,0,0,0,0,0,0,0,0,0,0,0,0,0,0,0,0,0,0,0,0,0,0,0,0,0,0,0,0,0,0,0,0,0,0,0,0,0,0,0,0,0,0,0,0,0,0,0,0,0,0,0,0,0,0,0,0,0,0,0,0,0,0,0,0,0,0,0,0,0,0,0,0,0,0,0,0,0,0,0,0,0,0,0,0,0,0,0,0,0,0,0,0,0,
0,0,0,0,0,0,0,0,0,0,0,0,0,0,0,0,0,0,0,0,0,0,0,0,0,0,0,0,0,0,0,0,0,0,0,0,0,0,0,0,0,0,0,0,0,0,0,0,0,0,0,0,0,0,0,0,0,0,0,0,0,0,0,0,0,0,0,0,0,0,0,0,0,0,0,0,0,0,0,0,0,0,0,0,0,0,0,0,0,0,0,0,0,0,0,0,0,0,0,0,
0,0,0,0,0,0,0,0,0,0,0,0,0,0,0,0,0,0,0,0,0,0,0,0,0,0,0,0,0,0,0,0,0,0,0,0,0,0,0,0,0,0,0,0,0,0,0,0,0,0,0,0,0,0,0,0,0,0,0,0,0,0,0,0,0,0,0,0,0,0,0,0,0,0,0,0,0,0,0,0,0,0,0,0,0,0,0,0,0,0,0,0,0,0,0,0,0,0,0,0,
0,0,0,0,0,0,0,0,0,0,0,0,0,0,0,0,0,0,0,0,0,0,0,0,0,0,0,0,0,0,0,0,0,0,0,0,0,0,0,0,0,0,0,0,0,0,0,0,0,0,0,0,0,0,0,0,0,0,0,0,0,0,0,0,0,0,0,0,0,0,0,0,0,0,0,0,0,0,0,0,0,0,0,0,0,0,0,0,0,0,0,0,0,0,0,0,0,0,0,0,
0,0,0,0,0,0,0,0,0,0,0,0,0,0,0,0,0,0,0,0,0,0,0,0,0,0,0,0,0,0,0,0,0,0,0,0,0,0,0,0,0,0,0,0,0,0,0,0,0,0,0,0,0,0,0,0,0,0,0,0,0,0,0,0,0,0,0,0,0,0,0,0,0,0,0,0,0,0,0,0,0,0,0,0,0,0,0,0,0,0,0,0,0,0,0,0,0,0,0,0,
0,0,0,0,0,0,0,0,0,0,0,0,0,0,0,0,0,0,0,0,0,0,0,0,0,0,0,0,0,0,0,0,0,0,0,0,0,0,0,0,0,0,0,0,0,0,0,0,0,0,0,0,0,0,0,0,0,0,0,0,0,0,0,0,0,0,0,0,0,0,0,0,0,0,0,0,0,0,0,0,0,0,0,0,0,0,0,0,0,0,0,0,0,0,0,0,0,0,0,0,
0,0,0,0,0,0,0,0,0,0,0,0,0,0,0,0,0,0,0,0,0,0,0,0,0,0,0,0,0,0,0,0,0,0,0,0,0,0,0,0,0,0,0,0,0,0,0,0,0,0,0,0,0,0,0,0,0,0,0,0,0,0,0,0,0,0,0,0,0,0,0,0,0,0,0,0,0,0,0,0,0,0,0,0,0,0,0,0,0,0,0,0,0,0,0,0,0,0,0,0,
0,0,0,0,0,0,0,0,0,0,0,0,0,0,0,0,0,0,0,0,0,0,0,0,0,0,0,0,0,0,0,0,0,0,0,0,0,0,0,0,0,0,0,0,0,0,0,0,0,0,0,0,0,0,0,0,0,0,0,0,0,0,0,0,0,0,0,0,0,0,0,0,0,0,0,0,0,0,0,0,0,0,0,0,0,0,0,0,0,0,0,0,0,0,0,0,0,0,0,0,
0,0,0,0,0,0,0,0,0,0,0,0,0,0,0,0,0,0,0,0,0,0,0,0,0,0,0,0,0,0,0,0,0,0,0,0,0,0,0,0,0,0,0,0,0,0,0,0,0,0,0,0,0,0,0,0,0,0,0,0,0,0,0,0,0,0,0,0,0,0,0,0,0,0,0,0,0,0,0,0,0,0,0,0,0,0,0,0,0,0,0,0,0,0,0,0,0,0,0,0,
0,0,0,0,0,0,0,0,0,0,0,0,0,0,0,0,0,0,0,0,0,0,0,0,0,0,0,0,0,0,0,0,0,0,0,0,0,0,0,0,0,0,0,0,0,0,0,0,0,0,0,0,0,0,0,0,0,0,0,0,0,0,0,0,0,0,0,0,0,0,0,0,0,0,0,0,0,0,0,0,0,0,0,0,0,0,0,0,0,0,0,0,0,0,0,0,0,0,0,0,
0,0,0,0,0,0,0,0,0,0,0,0,0,0,0,0,0,0,0,0,0,0,0,0,0,0,0,0,0,0,0,0,0,0,0,0,0,0,0,0,0,0,0,0,0,0,0,0,0,0,0,0,0,0,0,0,0,0,0,0,0,0,0,0,0,0,0,0,0,0,0,0,0,0,0,0,0,0,0,0,0,0,0,0,0,0,0,0,0,0,0,0,0,0,0,0,0,0,0,0,
0,0,0,0,0,0,0,0,0,0,0,0,0,0,0,0,0,0,0,0,0,0,0,0,0,0,0,0,0,0,0,0,0,0,0,0,0,0,0,0,0,0,0,0,0,0,0,0,0,0,0,0,0,0,0,0,0,0,0,0,0,0,0,0,0,0,0,0,0,0,0,0,0,0,0,0,0,0,0,0,0,0,0,0,0,0,0,0,0,0,0,0,0,0,0,0,0,0,0,0,
0,0,0,0,0,0,0,0,0,0,0,0,0,0,0,0,0,0,0,0,0,0,0,0,0,0,0,0,0,0,0,0,0,0,0,0,0,0,0,0,0,0,0,0,0,0,0,0,0,0,0,0,0,0,0,0,0,0,0,0,0,0,0,0,0,0,0,0,0,0,0,0,0,0,0,0,0,0,0,0,0,0,0,0,0,0,0,0,0,0,0,0,0,0,0,0,0,0,0,0,
0,0,0,0,0,0,0,0,0,0,0,0,0,0,0,0,0,0,0,0,0,0,0,0,0,0,0,0,0,0,0,0,0,0,0,0,0,0,0,0,0,0,0,0,0,0,0,0,0,0,0,0,0,0,0,0,0,0,0,0,0,0,0,0,0,0,0,0,0,0,0,0,0,0,0,0,0,0,0,0,0,0,0,0,0,0,0,0,0,0,0,0,0,0,0,0,0,0,0,0,
0,0,0,0,0,0,0,0,0,0,0,0,0,0,0,0,0,0,0,0,0,0,0,0,0,0,0,0,0,0,0,0,0,0,0,0,0,0,0,0,0,0,0,0,0,0,0,0,0,0,0,0,0,0,0,0,0,0,0,0,0,0,0,0,0,0,0,0,0,0,0,0,0,0,0,0,0,0,0,0,0,0,0,0,0,0,0,0,0,0,0,0,0,0,0,0,0,0,0,0,
0,0,0,0,0,0,0,0,0,0,0,0,0,0,0,0,0,0,0,0,0,0,0,0,0,0,0,0,0,0,0,0,0,0,0,0,0,0,0,0,0,0,0,0,0,0,0,0,0,0,0,0,0,0,0,0,0,0,0,0,0,0,0,0,0,0,0,0,0,0,0,0,0,0,0,0,0,0,0,0,0,0,0,0,0,0,0,0,0,0,0,0,0,0,0,0,0,0,0,0,
0,0,0,0,0,0,0,0,0,0,0,0,0,0,0,0,0,0,0,0,0,0,0,0,0,0,0,0,0,0,0,0,0,0,0,0,0,0,0,0,0,0,0,0,0,0,0,0,0,0,0,0,0,0,0,0,0,0,0,0,0,0,0,0,0,0,0,0,0,0,0,0,0,0,0,0,0,0,0,0,0,0,0,0,0,0,0,0,0,0,0,0,0,0,0,0,0,0,0,0,
0,0,0,0,0,0,0,0,0,0,0,0,0,0,0,0,0,0,0,0,0,0,0,0,0,0,0,0,0,0,0,0,0,0,0,0,0,0,0,0,0,0,0,0,0,0,0,0,0,0,0,0,0,0,0,0,0,0,0,0,0,0,0,0,0,0,0,0,0,0,0,0,0,0,0,0,0,0,0,0,0,0,0,0,0,0,0,0,0,0,0,0,0,0,0,0,0,0,0,0,
0,0,0,0,0,0,0,0,0,0,0,0,0,0,0,0,0,0,0,0,0,0,0,0,0,0,0,0,0,0,0,0,0,0,0,0,0,0,0,0,0,0,0,0,0,0,0,0,0,0,0,0,0,0,0,0,0,0,0,0,0,0,0,0,0,0,0,0,0,0,0,0,0,0,0,0,0,0,0,0,0,0,0,0,0,0,0,0,0,0,0,0,0,0,0,0,0,0,0,0,
0,0,0,0,0,0,0,0,0,0,0,0,0,0,0,0,0,0,0,0,0,0,0,0,0,0,0,0,0,0,0,0,0,0,0,0,0,0,0,0,0,0,0,0,0,0,0,0,0,0,0,0,0,0,0,0,0,0,0,0,0,0,0,0,0,0,0,0,0,0,0,0,0,0,0,0,0,0,0,0,0,0,0,0,0,0,0,0,0,0,0,0,0,0,0,0,0,0,0,0,
0,0,0,0,0,0,0,0,0,0,0,0,0,0,0,0,0,0,0,0,0,0,0,0,0,0,0,0,0,0,0,0,0,0,0,0,0,0,0,0,0,0,0,0,0,0,0,0,0,0,0,0,0,0,0,0,0,0,0,0,0,0,0,0,0,0,0,0,0,0,0,0,0,0,0,0,0,0,0,0,0,0,0,0,0,0,0,0,0,0,0,0,0,0,0,0,0,0,0,0,
0,0,0,0,0,0,0,0,0,0,0,0,0,0,0,0,0,0,0,0,0,0,0,0,0,0,0,0,0,0,0,0,0,0,0,0,0,0,0,0,0,0,0,0,0,0,0,0,0,0,0,0,0,0,0,0,0,0,0,0,0,0,0,0,0,0,0,0,0,0,0,0,0,0,0,0,0,0,0,0,0,0,0,0,0,0,0,0,0,0,0,0,0,0,0,0,0,0,0,0,
0,0,0,0,0,0,0,0,0,0,0,0,0,0,0,0,0,0,0,0,0,0,0,0,0,0,0,0,0,0,0,0,0,0,0,0,0,0,0,0,0,0,0,0,0,0,0,0,0,0,0,0,0,0,0,0,0,0,0,0,0,0,0,0,0,0,0,0,0,0,0,0,0,0,0,0,0,0,0,0,0,0,0,0,0,0,0,0,0,0,0,0,0,0,0,0,0,0,0,0,
0,0,0,0,0,0,0,0,0,0,0,0,0,0,0,0,0,0,0,0,0,0,0,0,0,0,0,0,0,0,0,0,0,0,0,0,0,0,0,0,0,0,0,0,0,0,0,0,0,0,0,0,0,0,0,0,0,0,0,0,0,0,0,0,0,0,0,0,0,0,0,0,0,0,0,0,0,0,0,0,0,0,0,0,0,0,0,0,0,0,0,0,0,0,0,0,0,0,0,0,
0,0,0,0,0,0,0,0,0,0,0,0,0,0,0,0,0,0,0,0,0,0,0,0,0,0,0,0,0,0,0,0,0,0,0,0,0,0,0,0,0,0,0,0,0,0,0,0,0,0,0,0,0,0,0,0,0,0,0,0,0,0,0,0,0,0,0,0,0,0,0,0,0,0,0,0,0,0,0,0,0,0,0,0,0,0,0,0,0,0,0,0,0,0,0,0,0,0,0,0,
0,0,0,0,0,0,0,0,0,0,0,0,0,0,0,0,0,0,0,0,0,0,0,0,0,0,0,0,0,0,0,0,0,0,0,0,0,0,0,0,0,0,0,0,0,0,0,0,0,0,0,0,0,0,0,0,0,0,0,0,0,0,0,0,0,0,0,0,0,0,0,0,0,0,0,0,0,0,0,0,0,0,0,0,0,0,0,0,0,0,0,0,0,0,0,0,0,0,0,0,
0,0,0,0,0,0,0,0,0,0,0,0,0,0,0,0,0,0,0,0,0,0,0,0,0,0,0,0,0,0,0,0,0,0,0,0,0,0,0,0,0,0,0,0,0,0,0,0,0,0,0,0,0,0,0,0,0,0,0,0,0,0,0,0,0,0,0,0,0,0,0,0,0,0,0,0,0,0,0,0,0,0,0,0,0,0,0,0,0,0,0,0,0,0,0,0,0,0,0,0,
0,0,0,0,0,0,0,0,0,0,0,0,0,0,0,0,0,0,0,0,0,0,0,0,0,0,0,0,0,0,0,0,0,0,0,0,0,0,0,0,0,0,0,0,0,0,0,0,0,0,0,0,0,0,0,0,0,0,0,0,0,0,0,0,0,0,0,0,0,0,0,0,0,0,0,0,0,0,0,0,0,0,0,0,0,0,0,0,0,0,0,0,0,0,0,0,0,0,0,0,
0,0,0,0,0,0,0,0,0,0,0,0,0,0,0,0,0,0,0,0,0,0,0,0,0,0,0,0,0,0,0,0,0,0,0,0,0,0,0,0,0,0,0,0,0,0,0,0,0,0,0,0,0,0,0,0,0,0,0,0,0,0,0,0,0,0,0,0,0,0,0,0,0,0,0,0,0,0,0,0,0,0,0,0,0,0,0,0,0,0,0,0,0,0,0,0,0,0,0,0,
0,0,0,0,0,0,0,0,0,0,0,0,0,0,0,0,0,0,0,0,0,0,0,0,0,0,0,0,0,0,0,0,0,0,0,0,0,0,0,0,0,0,0,0,0,0,0,0,0,0,0,0,0,0,0,0,0,0,0,0,0,0,0,0,0,0,0,0,0,0,0,0,0,0,0,0,0,0,0,0,0,0,0,0,0,0,0,0,0,0,0,0,0,0,0,0,0,0,0,0,
0,0,0,0,0,0,0,0,0,0,0,0,0,0,0,0,0,0,0,0,0,0,0,0,0,0,0,0,0,0,0,0,0,0,0,0,0,0,0,0,0,0,0,0,0,0,0,0,0,0,0,0,0,0,0,0,0,0,0,0,0,0,0,0,0,0,0,0,0,0,0,0,0,0,0,0,0,0,0,0,0,0,0,0,0,0,0,0,0,0,0,0,0,0,0,0,0,0,0,0,
0,0,0,0,0,0,0,0,0,0,0,0,0,0,0,0,0,0,0,0,0,0,0,0,0,0,0,0,0,0,0,0,0,0,0,0,0,0,0,0,0,0,0,0,0,0,0,0,0,0,0,0,0,0,0,0,0,0,0,0,0,0,0,0,0,0,0,0,0,0,0,0,0,0,0,0,0,0,0,0,0,0,0,0,0,0,0,0,0,0,0,0,0,0,0,0,0,0,0,0,
0,0,0,0,0,0,0,0,0,0,0,0,0,0,0,0,0,0,0,0,0,0,0,0,0,0,0,0,0,0,0,0,0,0,0,0,0,0,0,0,0,0,0,0,0,0,0,0,0,0,0,0,0,0,0,0,0,0,0,0,0,0,0,0,0,0,0,0,0,0,0,0,0,0,0,0,0,0,0,0,0,0,0,0,0,0,0,0,0,0,0,0,0,0,0,0,0,0,0,0,
0,0,0,0,0,0,0,0,0,0,0,0,0,0,0,0,0,0,0,0,0,0,0,0,0,0,0,0,0,0,0,0,0,0,0,0,0,0,0,0,0,0,0,0,0,0,0,0,0,0,0,0,0,0,0,0,0,0,0,0,0,0,0,0,0,0,0,0,0,0,0,0,0,0,0,0,0,0,0,0,0,0,0,0,0,0,0,0,0,0,0,0,0,0,0,0,0,0,0,0,
0,0,0,0,0,169,0,0,0,0,0,0,0,0,0,0,0,0,0,0,0,0,0,0,0,0,0,0,0,0,0,0,0,0,0,0,0,0,0,0,0,0,0,0,0,0,0,0,0,0,0,0,0,0,0,0,0,0,0,0,0,0,0,0,0,0,0,0,0,0,0,0,0,0,0,0,0,0,0,0,0,0,0,0,0,0,0,0,0,0,0,0,0,0,0,0,0,0,0,0,
0,0,0,0,0,0,0,0,0,0,0,0,0,0,0,0,0,0,0,0,0,0,0,0,0,0,0,0,0,0,0,0,0,0,0,0,0,0,0,0,0,0,0,0,0,0,0,0,0,0,0,0,0,0,0,0,0,0,0,0,0,0,0,0,0,0,0,0,0,0,0,0,0,0,0,0,0,0,0,0,0,0,0,0,0,0,0,0,0,0,0,0,0,0,0,0,0,0,0,0,
0,0,0,0,0,0,0,169,0,0,0,0,0,0,0,0,0,0,0,0,0,0,0,0,0,0,0,0,0,0,0,0,0,0,0,0,0,0,0,0,0,0,0,0,0,0,0,0,0,0,0,0,0,0,0,0,0,0,0,0,0,0,0,0,0,0,0,0,0,0,0,0,0,0,0,0,0,0,0,0,0,0,0,0,0,0,0,0,0,0,0,0,0,0,0,0,0,0,0,0,
0,0,0,0,0,0,0,0,0,0,0,0,0,0,0,0,0,0,0,0,0,0,0,0,0,0,0,0,0,0,0,0,0,0,0,0,0,0,0,0,0,0,0,0,0,0,0,0,0,0,0,0,0,0,0,0,0,0,0,0,0,0,0,0,0,0,0,0,0,0,0,0,0,0,0,0,0,0,0,0,0,0,0,0,0,0,0,0,0,0,0,0,0,0,0,0,0,0,0,0,
0,0,170,0,0,0,0,0,0,0,0,0,0,0,0,0,0,0,0,0,0,0,0,0,0,0,0,0,0,0,0,0,0,0,0,0,0,0,0,0,0,0,0,0,0,0,0,0,0,0,0,0,0,0,0,0,0,0,0,0,0,0,0,0,0,0,0,0,0,0,0,0,0,0,0,0,0,0,0,0,0,0,0,0,0,0,0,0,0,0,0,0,0,0,0,0,0,0,0,0,
0,0,0,0,0,0,169,0,0,0,0,0,0,0,0,0,0,0,0,0,0,0,0,0,0,0,0,0,0,0,0,0,0,0,0,0,0,0,0,0,0,0,0,0,0,0,0,0,0,0,0,0,0,0,0,0,0,0,0,0,0,0,0,0,0,0,0,0,0,0,0,0,0,0,0,0,0,0,0,0,0,0,0,0,0,0,0,0,0,0,0,0,0,0,0,0,0,0,0,0,
0,0,0,0,0,0,0,0,0,0,0,0,0,0,0,0,0,0,0,0,0,0,0,0,0,0,0,0,0,0,0,0,0,0,0,0,0,0,0,0,0,0,0,0,0,0,0,0,0,0,0,0,0,0,0,0,0,0,0,0,0,0,0,0,0,0,0,0,0,0,0,0,0,0,0,0,0,0,0,0,0,0,0,0,0,0,0,0,0,0,0,0,0,0,0,0,0,0,0,0,
0,0,0,0,0,0,0,0,0,0,0,0,0,0,0,0,0,0,0,0,0,0,0,0,0,0,0,0,0,0,0,0,0,0,0,0,0,0,0,0,0,0,0,0,0,0,0,0,0,0,0,0,0,0,0,0,0,0,0,0,0,0,0,0,0,0,0,0,0,0,0,0,0,0,0,0,0,0,0,0,0,0,0,0,0,0,0,0,0,0,0,0,0,0,0,0,0,0,0,0,
0,0,0,0,0,0,0,0,0,0,0,0,0,0,0,0,0,0,0,0,0,0,0,0,0,0,0,0,0,0,0,0,0,0,0,0,0,0,0,0,0,0,0,0,0,0,0,0,0,0,0,0,0,0,0,0,0,0,0,0,0,0,0,0,0,0,0,0,0,0,0,0,0,0,0,0,0,0,0,0,0,0,0,0,0,0,0,0,0,0,0,0,0,0,0,0,0,0,0,0,
0,0,0,0,0,0,0,0,0,0,0,0,0,0,0,0,0,0,0,0,0,0,0,0,0,0,0,0,0,0,0,0,0,0,0,0,0,0,0,0,0,0,0,0,0,0,0,0,0,0,0,0,0,0,0,0,0,0,0,0,0,0,0,0,0,0,0,0,0,0,0,0,0,0,0,0,0,0,0,0,0,0,0,0,0,0,0,0,0,0,0,0,0,0,0,0,0,0,0,0,
0,0,0,0,0,0,0,0,0,0,0,0,0,0,0,0,0,0,0,0,0,0,0,0,0,0,0,0,0,0,0,0,0,0,0,0,0,0,0,0,0,0,0,0,0,0,0,0,0,0,0,0,0,0,0,0,0,0,0,0,0,0,0,0,0,0,0,0,0,0,0,0,0,0,0,0,0,0,0,0,0,0,0,0,0,0,0,0,0,0,0,0,0,0,0,0,0,0,0,0,
0,0,0,0,0,0,0,0,0,0,0,0,0,0,0,0,0,0,0,0,0,0,0,0,0,0,0,0,0,0,0,0,0,0,0,0,0,0,0,0,0,0,0,0,0,0,0,0,0,0,0,0,0,0,0,0,0,0,0,0,0,0,0,0,0,0,0,0,0,0,0,0,0,0,0,0,0,0,0,0,0,0,0,0,0,0,0,0,0,0,0,0,0,0,0,0,0,0,0,0,
0,0,0,0,0,0,0,0,0,0,0,0,0,0,0,0,0,0,0,0,0,0,0,0,0,0,0,0,0,0,0,0,0,0,0,0,0,0,0,0,0,0,0,0,0,0,0,0,0,0,0,0,0,0,0,0,0,0,0,0,0,0,0,0,0,0,0,0,0,0,0,0,0,0,0,0,0,0,0,0,0,0,0,0,0,0,0,0,0,0,0,0,0,0,0,0,0,0,0,0,
0,0,0,0,0,0,0,0,0,0,0,0,0,0,0,0,0,0,0,0,0,0,0,0,0,0,0,0,0,0,0,0,0,0,0,0,0,0,0,0,0,0,0,0,0,0,0,0,0,0,0,0,0,0,0,0,0,0,0,0,0,0,0,0,0,0,0,0,0,0,0,0,0,0,0,0,0,0,0,0,0,0,0,0,0,0,0,0,0,0,0,0,0,0,0,0,0,0,0,0,
0,0,0,0,0,0,0,0,0,0,0,0,0,0,0,0,0,0,0,0,0,0,0,0,0,0,0,0,0,0,0,0,0,0,0,0,0,0,0,0,0,0,0,0,0,0,0,0,0,0,0,0,0,0,0,0,0,0,0,0,0,0,0,0,0,0,0,0,0,0,0,0,0,0,0,0,0,0,0,0,0,0,0,0,0,0,0,0,0,0,0,0,0,0,0,0,0,0,0,0,
0,0,0,0,0,0,0,0,0,0,0,0,0,0,0,0,0,0,0,0,0,0,0,0,0,0,0,0,0,0,0,0,0,0,0,0,0,0,0,0,0,0,0,0,0,0,0,0,0,0,0,0,0,0,0,0,0,0,0,0,0,0,0,0,0,0,0,0,0,0,0,0,0,0,0,0,0,0,0,0,0,0,0,0,0,0,0,0,0,0,0,0,0,0,0,0,0,0,0,0,
0,0,0,0,0,0,0,0,0,0,0,0,0,0,0,0,0,0,0,0,0,0,0,0,0,0,0,0,0,0,0,0,0,0,0,0,0,0,0,0,0,0,0,0,0,0,0,0,0,0,0,0,0,0,0,0,0,0,0,0,0,0,0,0,0,0,0,0,0,0,0,0,0,0,0,0,0,0,0,0,0,0,0,0,0,0,0,0,0,0,0,0,0,0,0,0,0,0,0,0,
0,0,0,0,0,0,0,0,0,0,0,0,0,0,0,0,0,0,0,0,0,0,0,0,0,0,0,0,0,0,0,0,0,0,0,0,0,0,0,0,0,0,0,0,0,0,0,0,0,0,0,0,0,0,0,0,0,0,0,0,0,0,0,0,0,0,0,0,0,0,0,0,0,0,0,0,0,0,0,0,0,0,0,0,0,0,0,0,0,0,0,0,0,0,0,0,0,0,0,0,
0,0,0,0,0,0,0,0,0,0,0,0,0,0,0,0,0,29,29,9,29,29,19,29,9,0,0,0,0,0,0,0,0,0,0,0,0,0,0,0,0,0,0,0,0,0,0,0,0,0,0,0,0,0,0,0,0,0,0,0,0,0,0,0,0,0,0,0,0,0,0,0,0,0,0,0,0,0,0,0,0,0,0,0,0,0,0,0,0,0,0,0,0,0,0,0,0,0,0,0,
0,0,0,0,0,0,0,0,0,0,0,0,0,0,0,0,25,0,0,19,0,0,0,29,29,0,0,0,0,0,0,0,0,0,0,0,0,0,0,0,0,0,0,0,0,0,0,0,0,0,0,0,0,0,0,0,0,0,0,0,0,0,0,0,0,0,0,0,0,0,0,0,0,0,0,0,0,0,0,0,0,0,0,0,0,0,0,0,0,0,0,0,0,0,0,0,0,0,0,0,
0,0,0,0,0,0,0,0,0,0,0,0,0,0,0,0,0,13,37,37,37,37,37,22,9,0,0,0,0,0,0,0,0,0,0,0,0,0,0,0,0,0,0,0,0,0,0,0,0,0,0,0,0,0,0,0,0,0,0,0,0,0,0,0,0,0,0,0,0,0,0,0,0,0,0,0,0,0,0,0,0,0,0,0,0,0,0,0,0,0,0,0,0,0,0,0,0,0,0,0,
0,0,0,0,0,0,0,0,0,0,0,0,0,0,0,0,0,30,5,5,5,5,5,28,29,0,0,0,0,0,0,0,0,0,0,0,0,0,0,0,0,0,0,0,0,0,0,0,0,0,0,0,0,0,0,0,0,0,0,0,0,0,0,0,0,0,0,0,0,0,0,0,0,0,0,0,0,0,0,0,0,0,0,0,0,0,0,0,0,0,0,0,0,0,0,0,0,0,0,0,
0,0,0,0,0,0,0,0,0,0,0,0,0,0,0,0,25,30,5,5,5,5,5,28,26,0,0,0,0,0,0,0,0,0,0,0,0,0,0,0,0,0,0,0,0,0,0,0,0,0,0,0,0,0,0,0,0,0,0,0,0,0,0,0,0,0,0,0,0,0,0,0,0,0,0,0,0,0,0,0,0,0,0,0,0,0,0,0,0,0,0,0,0,0,0,0,0,0,0,0,
0,0,0,0,0,0,0,0,0,0,0,0,0,0,0,0,0,30,5,5,5,5,5,28,26,29,0,0,0,0,0,0,0,0,0,0,0,0,0,0,0,0,0,0,0,0,0,0,0,0,0,0,0,0,0,0,0,0,0,0,0,0,0,0,0,0,0,0,0,0,0,0,0,0,0,0,0,0,0,0,0,0,0,0,0,0,0,0,0,0,0,0,0,0,0,0,0,0,0,0,
0,0,0,0,0,0,0,0,0,0,0,0,0,0,0,0,9,21,44,44,44,44,44,14,26,29,0,0,0,0,0,0,0,0,0,0,0,0,0,0,0,0,0,0,0,0,0,0,0,0,0,0,0,0,0,0,0,0,0,0,0,0,0,0,0,0,0,0,0,0,0,0,0,0,0,0,0,0,0,0,0,0,0,0,0,0,0,0,0,0,0,0,0,0,0,0,0,0,0,0,
0,0,0,0,0,0,0,0,0,0,0,0,0,0,0,0,29,18,0,19,0,19,0,0,9,0,0,0,0,0,0,0,0,0,0,0,0,0,0,0,0,0,0,0,0,0,0,0,0,0,0,0,0,0,0,0,0,0,0,0,0,0,0,0,0,0,0,0,0,0,0,0,0,0,0,0,0,0,0,0,0,0,0,0,0,0,0,0,0,0,0,0,0,0,0,0,0,0,0,0,
0,0,0,0,0,0,0,0,0,0,0,0,0,0,0,0,0,29,29,29,29,29,29,26,0,0,0,0,0,0,0,0,0,0,0,0,0,0,0,0,0,0,0,0,0,0,0,0,0,0,0,0,0,0,0,0,0,0,0,0,0,0,0,0,0,0,0,0,0,0,0,0,0,0,0,0,0,0,0,0,0,0,0,0,0,0,0,0,0,0,0,0,0,0,0,0,0,0,0,0,
0,0,0,0,0,0,0,0,0,0,0,0,0,0,0,0,0,0,0,0,0,0,0,0,0,0,0,0,0,0,0,0,0,0,0,0,0,0,0,0,0,0,0,0,0,0,0,0,0,0,0,0,0,0,0,0,0,0,0,0,0,0,0,0,0,0,0,0,0,0,0,0,0,0,0,0,0,0,0,0,0,0,0,0,0,0,0,0,0,0,0,0,0,0,0,0,0,0,0,0,
0,0,0,0,0,0,0,0,0,0,0,0,0,0,0,0,0,0,0,0,0,0,0,0,0,0,0,0,0,0,0,0,0,0,0,0,0,0,0,0,0,0,0,0,0,0,0,0,0,0,0,0,0,0,0,0,0,0,0,0,0,0,0,0,0,0,0,0,0,0,0,0,0,0,0,0,0,0,0,0,0,0,0,0,0,0,0,0,0,0,0,0,0,0,0,0,0,0,0,0,
0,0,0,0,0,0,0,0,0,0,0,0,0,0,0,0,0,0,0,0,0,0,0,0,0,0,0,0,0,0,0,0,0,0,0,0,0,0,0,0,0,0,0,0,0,0,0,0,0,0,0,0,0,0,0,0,0,0,0,0,0,0,0,0,0,0,0,0,0,0,0,0,0,0,0,0,0,0,0,0,0,0,0,0,0,0,0,0,0,0,0,0,0,0,0,0,0,0,0,0,
0,0,0,0,0,0,0,0,0,0,0,0,0,0,0,0,0,0,0,0,0,0,0,0,0,0,0,0,0,0,0,0,0,0,0,0,0,0,0,0,0,0,0,0,0,0,0,0,0,0,0,0,0,0,0,0,0,0,0,0,0,0,0,0,0,0,0,0,0,0,0,0,0,0,0,0,0,0,0,0,0,0,0,0,0,0,0,0,0,0,0,0,0,0,0,0,0,0,0,0,
0,0,0,0,0,0,0,0,0,0,0,0,0,0,0,0,0,0,0,0,0,0,0,0,0,0,0,0,0,0,0,0,0,0,0,0,0,0,0,0,0,0,0,0,0,0,0,0,0,0,0,0,0,0,0,0,0,0,0,0,0,0,0,0,0,0,0,0,0,0,0,0,0,0,0,0,0,0,0,0,0,0,0,0,0,0,0,0,0,0,0,0,0,0,0,0,0,0,0,0,
0,0,0,0,0,0,0,0,0,0,0,0,0,0,0,0,0,0,0,0,0,0,0,0,0,0,0,0,0,0,0,0,0,0,0,0,0,0,0,0,0,0,0,0,0,0,0,0,0,0,0,0,0,0,0,0,0,0,0,0,0,0,0,0,0,0,0,0,0,0,0,0,0,0,0,0,0,0,0,0,0,0,0,0,0,0,0,0,0,0,0,0,0,0,0,0,0,0,0,0,
0,0,0,0,0,0,0,0,0,0,0,0,0,0,0,0,0,0,0,0,0,0,0,0,0,0,0,0,0,0,0,0,0,0,0,0,0,0,0,0,0,0,0,0,0,0,0,0,0,0,0,0,0,0,0,0,0,0,0,0,0,0,0,0,0,0,0,0,0,0,0,0,0,0,0,0,0,0,0,0,0,0,0,0,0,0,0,0,0,0,0,0,0,0,0,0,0,0,0,0,
0,0,0,0,0,0,0,0,0,0,0,0,0,0,0,0,0,0,0,0,0,0,0,0,0,0,0,0,0,0,0,0,0,0,0,0,0,0,0,0,0,0,0,0,0,0,0,0,0,0,0,0,0,0,0,0,0,0,0,0,0,0,0,0,0,0,0,0,0,0,0,0,0,0,0,0,0,0,0,0,0,0,0,0,0,0,0,0,0,0,0,0,0,0,0,0,0,0,0,0,
0,0,0,0,0,0,0,0,0,0,0,0,0,0,0,0,0,0,0,0,0,0,0,0,0,0,0,0,0,0,0,0,0,0,0,0,0,0,0,0,0,0,0,0,0,0,0,0,0,0,0,0,0,0,0,0,0,0,0,0,0,0,0,0,0,0,0,0,0,0,0,0,0,0,0,0,0,0,0,0,0,0,0,0,0,0,0,0,0,0,0,0,0,0,0,0,0,0,0,0,
0,0,0,0,0,0,0,0,0,0,0,0,0,0,0,0,0,0,0,0,0,0,0,0,0,0,0,0,0,0,0,0,0,0,0,0,0,0,0,0,0,0,0,0,0,0,0,0,0,0,0,0,0,0,0,0,0,0,0,0,0,0,0,0,0,0,0,0,0,0,0,0,0,0,0,0,0,0,0,0,0,0,0,0,0,0,0,0,0,0,0,0,0,0,0,0,0,0,0,0,
0,0,0,0,0,0,0,0,0,0,0,0,0,0,0,0,0,0,0,0,0,0,0,0,0,0,0,0,0,0,0,0,0,0,0,0,0,0,0,0,0,0,0,0,0,0,0,0,0,0,0,0,0,0,0,0,0,0,0,0,0,0,0,0,0,0,0,0,0,0,0,0,0,0,0,0,0,0,0,0,0,0,0,0,0,0,0,0,0,0,0,0,0,0,0,0,0,0,0,0,
0,0,0,0,0,0,0,0,0,0,0,0,0,0,0,0,0,0,0,0,0,0,0,0,0,0,0,0,0,0,0,0,0,0,0,0,0,0,0,0,0,0,0,0,0,0,0,0,0,0,0,0,0,0,0,0,0,0,0,0,0,0,0,0,0,0,0,0,0,0,0,0,0,0,0,0,0,0,0,0,0,0,0,0,0,0,0,0,0,0,0,0,0,0,0,0,0,0,0,0,
0,0,0,0,0,0,0,0,0,0,0,0,0,0,0,0,0,0,0,0,0,0,0,0,0,0,0,0,0,0,0,0,0,0,0,0,0,0,0,0,0,0,0,0,0,0,0,0,0,0,0,0,0,0,0,0,0,0,0,0,0,0,0,0,0,0,0,0,0,0,0,0,0,0,0,0,0,0,0,0,0,0,0,0,0,0,0,0,0,0,0,0,0,0,0,0,0,0,0,0,
0,0,0,0,0,0,0,0,0,0,0,0,0,0,0,0,0,0,0,0,0,0,0,0,0,0,0,0,0,0,0,0,0,0,0,0,0,0,0,0,0,0,0,0,0,0,0,0,0,0,0,0,0,0,0,0,0,0,0,0,0,0,0,0,0,0,0,0,0,0,0,0,0,0,0,0,0,0,0,0,0,0,0,0,0,0,0,0,0,0,0,0,0,0,0,0,0,0,0,0
</data>
 </layer>
 <objectgroup id="3" name="Spawn" visible="0">
  <object id="5" x="141.333" y="2909.33">
   <point/>
  </object>
  <object id="6" x="97.3333" y="2832.67" width="87.3333" height="10"/>
 </objectgroup>
 <objectgroup id="2" name="Solid" visible="0">
  <object id="1" x="-2" y="2" width="3200" height="3190"/>
 </objectgroup>
 <layer id="6" name="House and Duck" width="100" height="100">
  <data encoding="csv">
0,0,0,0,0,0,0,0,0,0,0,0,0,0,0,0,0,0,0,0,0,0,0,0,0,0,0,0,0,0,0,0,0,0,0,0,0,0,0,0,0,0,0,0,0,0,0,0,0,0,0,0,0,0,0,0,0,0,0,0,0,0,0,0,0,0,0,0,0,0,0,0,0,0,0,0,0,0,0,0,0,0,0,0,0,0,0,0,0,0,0,0,0,0,0,0,0,0,0,0,
0,0,0,0,0,0,0,0,0,0,0,0,0,0,0,0,0,0,0,0,0,0,0,0,0,0,0,0,0,0,0,0,0,0,0,0,0,0,0,0,0,0,0,0,0,0,0,0,0,0,0,0,0,0,0,0,0,0,0,0,0,0,0,0,0,0,0,0,0,0,0,0,0,0,0,0,0,0,0,0,0,0,0,0,0,0,0,0,0,0,0,0,0,0,0,0,0,0,0,0,
0,0,0,0,0,0,0,0,0,0,0,0,0,0,0,0,0,0,0,0,0,0,0,0,0,0,0,0,0,0,0,0,0,0,0,0,0,0,0,0,0,0,0,0,0,0,0,0,0,0,0,0,0,0,0,0,0,0,0,0,0,0,0,0,0,0,0,0,0,0,0,0,0,0,0,0,0,0,0,0,0,0,0,0,0,0,0,0,0,0,0,0,0,0,0,0,0,0,0,0,
0,0,0,0,0,0,0,0,0,0,0,0,0,0,0,0,0,0,0,0,0,0,0,0,0,0,0,0,0,0,0,0,0,0,0,0,0,0,0,0,0,0,0,0,0,0,0,0,0,0,0,0,0,0,0,0,0,0,0,0,0,0,0,0,0,0,0,0,0,0,0,0,0,0,0,0,0,0,0,0,0,0,0,0,0,0,0,0,0,0,0,0,0,0,0,0,0,0,0,0,
0,0,0,0,0,0,0,0,0,0,0,0,0,0,0,0,0,0,0,0,0,0,0,0,0,0,0,0,0,0,0,0,0,0,0,0,0,0,0,0,0,0,0,0,0,0,0,0,0,0,0,0,0,0,0,0,0,0,0,0,0,0,0,0,0,0,0,0,0,0,0,0,0,0,0,0,0,0,0,0,0,0,0,0,0,0,0,0,0,0,0,0,0,0,0,0,0,0,0,0,
0,0,0,0,0,0,0,0,0,0,0,0,0,0,0,0,0,0,0,0,0,0,0,0,0,0,0,0,0,0,0,0,0,0,0,0,0,0,0,0,0,0,0,0,0,0,0,0,0,0,0,0,0,0,0,0,0,0,0,0,0,0,0,0,0,0,0,0,0,0,0,0,0,0,0,0,0,0,0,0,0,0,0,0,0,0,0,0,0,0,0,0,0,0,0,0,0,0,0,0,
0,0,0,0,0,0,0,0,0,0,0,0,0,0,0,0,0,0,0,0,0,0,0,0,0,0,0,0,0,0,0,0,0,0,0,0,0,0,0,0,0,0,0,0,0,0,0,0,0,0,0,0,0,0,0,0,0,0,0,0,0,0,0,0,0,0,0,0,0,0,0,0,0,0,0,0,0,0,0,0,0,0,0,0,0,0,0,0,0,0,0,0,0,0,0,0,0,0,0,0,
0,0,0,0,0,0,0,0,0,0,0,0,0,0,0,0,0,0,0,0,0,0,0,0,0,0,0,0,0,0,0,0,0,0,0,0,0,0,0,0,0,0,0,0,0,0,0,0,0,0,0,0,0,0,0,0,0,0,0,0,0,0,0,0,0,0,0,0,0,0,0,0,0,0,0,0,0,0,0,0,0,0,0,0,0,0,0,0,0,0,0,0,0,0,0,0,0,0,0,0,
0,0,0,0,0,0,0,0,0,0,0,0,0,0,0,0,0,0,0,0,0,0,0,0,0,0,0,0,0,0,0,0,0,0,0,0,0,0,0,0,0,0,0,0,0,0,0,0,0,0,0,0,0,0,0,0,0,0,0,0,0,0,0,0,0,0,0,0,0,0,0,0,0,0,0,0,0,0,0,0,0,0,0,0,0,0,0,0,0,0,0,0,0,0,0,0,0,0,0,0,
0,0,0,0,0,0,0,0,0,0,0,0,0,0,0,0,0,0,0,0,0,0,0,0,0,0,0,0,0,0,0,0,0,0,0,0,0,0,0,0,0,0,0,0,0,0,0,0,0,0,0,0,0,0,0,0,0,0,0,0,0,0,0,0,0,0,0,0,0,0,0,0,0,0,0,0,0,0,0,0,0,0,0,0,0,0,0,0,0,0,0,0,0,0,0,0,0,0,0,0,
0,0,0,0,0,0,0,0,0,0,0,0,0,0,0,0,0,0,0,0,0,0,0,0,0,0,0,0,0,0,0,0,0,0,0,0,0,0,0,0,0,0,0,0,0,0,0,0,0,0,0,0,0,0,0,0,0,0,0,0,0,0,0,0,0,0,0,0,0,0,0,0,0,0,0,0,0,0,0,0,0,0,0,0,0,0,0,0,0,0,0,0,0,0,0,0,0,0,0,0,
0,0,0,0,0,0,0,0,0,0,0,0,0,0,0,0,0,0,0,0,0,0,0,0,0,0,0,0,0,0,0,0,0,0,0,0,0,0,0,0,0,0,0,0,0,0,0,0,0,0,0,0,0,0,0,0,0,0,0,0,0,0,0,0,0,0,0,0,0,0,0,0,0,0,0,0,0,0,0,0,0,0,0,0,0,0,0,0,0,0,0,0,0,0,0,0,0,0,0,0,
0,0,0,0,0,0,0,0,0,0,0,0,0,0,0,0,0,0,0,0,0,0,0,0,0,0,0,0,0,0,0,0,0,0,0,0,0,0,0,0,0,0,0,0,0,0,0,0,0,0,0,0,0,0,0,0,0,0,0,0,0,0,0,0,0,0,0,0,0,0,0,0,0,0,0,0,0,0,0,0,0,0,0,0,0,0,0,0,0,0,0,0,0,0,0,0,0,0,0,0,
0,0,0,0,0,0,0,0,0,0,0,0,0,0,0,0,0,0,0,0,0,0,0,0,0,0,0,0,0,0,0,0,0,0,0,0,0,0,0,0,0,0,0,0,0,0,0,0,0,0,0,0,0,0,0,0,0,0,0,0,0,0,0,0,0,0,0,0,0,0,0,0,0,0,0,0,0,0,0,0,0,0,0,0,0,0,0,0,0,0,0,0,0,0,0,0,0,0,0,0,
0,0,0,0,0,0,0,0,0,0,0,0,0,0,0,0,0,0,0,0,0,0,0,0,0,0,0,0,0,0,0,0,0,0,0,0,0,0,0,0,0,0,0,0,0,0,0,0,0,0,0,0,0,0,0,0,0,0,0,0,0,0,0,0,0,0,0,0,0,0,0,0,0,0,0,0,0,0,0,0,0,0,0,0,0,0,0,0,0,0,0,0,0,0,0,0,0,0,0,0,
0,0,0,0,0,0,0,0,0,0,0,0,0,0,0,0,0,0,0,0,0,0,0,0,0,0,0,0,0,0,0,0,0,0,0,0,0,0,0,0,0,0,0,0,0,0,0,0,0,0,0,0,0,0,0,0,0,0,0,0,0,0,0,0,0,0,0,0,0,0,0,0,0,0,0,0,0,0,0,0,0,0,0,0,0,0,0,0,0,0,0,0,0,0,0,0,0,0,0,0,
0,0,0,0,0,0,0,0,0,0,0,0,0,0,0,0,0,0,0,0,0,0,0,0,0,0,0,0,0,0,0,0,0,0,0,0,0,0,0,0,0,0,0,0,0,0,0,0,0,0,0,0,0,0,0,0,0,0,0,0,0,0,0,0,0,0,0,0,0,0,0,0,0,0,0,0,0,0,0,0,0,0,0,0,0,0,0,0,0,0,0,0,0,0,0,0,0,0,0,0,
0,0,0,0,0,0,0,0,0,0,0,0,0,0,0,0,0,0,0,0,0,0,0,0,0,0,0,0,0,0,0,0,0,0,0,0,0,0,0,0,0,0,0,0,0,0,0,0,0,0,0,0,0,0,0,0,0,0,0,0,0,0,0,0,0,0,0,0,0,0,0,0,0,0,0,0,0,0,0,0,0,0,0,0,0,0,0,0,0,0,0,0,0,0,0,0,0,0,0,0,
0,0,0,0,0,0,0,0,0,0,0,0,0,0,0,0,0,0,0,0,0,0,0,0,0,0,0,0,0,0,0,0,0,0,0,0,0,0,0,0,0,0,0,0,0,0,0,0,0,0,0,0,0,0,0,0,0,0,0,0,0,0,0,0,0,0,0,0,0,0,0,0,0,0,0,0,0,0,0,0,0,0,0,0,0,0,0,0,0,0,0,0,0,0,0,0,0,0,0,0,
0,0,0,0,0,0,0,0,0,0,0,0,0,0,0,0,0,0,0,0,0,0,0,0,0,0,0,0,0,0,0,0,0,0,0,0,0,0,0,0,0,0,0,0,0,0,0,0,0,0,0,0,0,0,0,0,0,0,0,0,0,0,0,0,0,0,0,0,0,0,0,0,0,0,0,0,0,0,0,0,0,0,0,0,0,0,0,0,0,0,0,0,0,0,0,0,0,0,0,0,
0,0,0,0,0,0,0,0,0,0,0,0,0,0,0,0,0,0,0,0,0,0,0,0,0,0,0,0,0,0,0,0,0,0,0,0,0,0,0,0,0,0,0,0,0,0,0,0,0,0,0,0,0,0,0,0,0,0,0,0,0,0,0,0,0,0,0,0,0,0,0,0,0,0,0,0,0,0,0,0,0,0,0,0,0,0,0,0,0,0,0,0,0,0,0,0,0,0,0,0,
0,0,0,0,0,0,0,0,0,0,0,0,0,0,0,0,0,0,0,0,0,0,0,0,0,0,0,0,0,0,0,0,0,0,0,0,0,0,0,0,0,0,0,0,0,0,0,0,0,0,0,0,0,0,0,0,0,0,0,0,0,0,0,0,0,0,0,0,0,0,0,0,0,0,0,0,0,0,0,0,0,0,0,0,0,0,0,0,0,0,0,0,0,0,0,0,0,0,0,0,
0,0,0,0,0,0,0,0,0,0,0,0,0,0,0,0,0,0,0,0,0,0,0,0,0,0,0,0,0,0,0,0,0,0,0,0,0,0,0,0,0,0,0,0,0,0,0,0,0,0,0,0,0,0,0,0,0,0,0,0,0,0,0,0,0,0,0,0,0,0,0,0,0,0,0,0,0,0,0,0,0,0,0,0,0,0,0,0,0,0,0,0,0,0,0,0,0,0,0,0,
0,0,0,0,0,0,0,0,0,0,0,0,0,0,0,0,0,0,0,0,0,0,0,0,0,0,0,0,0,0,0,0,0,0,0,0,0,0,0,0,0,0,0,0,0,0,0,0,0,0,0,0,0,0,0,0,0,0,0,0,0,0,0,0,0,0,0,0,0,0,0,0,0,0,0,0,0,0,0,0,0,0,0,0,0,0,0,0,0,0,0,0,0,0,0,0,0,0,0,0,
0,0,0,0,0,0,0,0,0,0,0,0,0,0,0,0,0,0,0,0,0,0,0,0,0,0,0,0,0,0,0,0,0,0,0,0,0,0,0,0,0,0,0,0,0,0,0,0,0,0,0,0,0,0,0,0,0,0,0,0,0,0,0,0,0,0,0,0,0,0,0,0,0,0,0,0,0,0,0,0,0,0,0,0,0,0,0,0,0,0,0,0,0,0,0,0,0,0,0,0,
0,0,0,0,0,0,0,0,0,0,0,0,0,0,0,0,0,0,0,0,0,0,0,0,0,0,0,0,0,0,0,0,0,0,0,0,0,0,0,0,0,0,0,0,0,0,0,0,0,0,0,0,0,0,0,0,0,0,0,0,0,0,0,0,0,0,0,0,0,0,0,0,0,0,0,0,0,0,0,0,0,0,0,0,0,0,0,0,0,0,0,0,0,0,0,0,0,0,0,0,
0,0,0,0,0,0,0,0,0,0,0,0,0,0,0,0,0,0,0,0,0,0,0,0,0,0,0,0,0,0,0,0,0,0,0,0,0,0,0,0,0,0,0,0,0,0,0,0,0,0,0,0,0,0,0,0,0,0,0,0,0,0,0,0,0,0,0,0,0,0,0,0,0,0,0,0,0,0,0,0,0,0,0,0,0,0,0,0,0,0,0,0,0,0,0,0,0,0,0,0,
0,0,0,0,0,0,0,0,0,0,0,0,0,0,0,0,0,0,0,0,0,0,0,0,0,0,0,0,0,0,0,0,0,0,0,0,0,0,0,0,0,0,0,0,0,0,0,0,0,0,0,0,0,0,0,0,0,0,0,0,0,0,0,0,0,0,0,0,0,0,0,0,0,0,0,0,0,0,0,0,0,0,0,0,0,0,0,0,0,0,0,0,0,0,0,0,0,0,0,0,
0,0,0,0,0,0,0,0,0,0,0,0,0,0,0,0,0,0,0,0,0,0,0,0,0,0,0,0,0,0,0,0,0,0,0,0,0,0,0,0,0,0,0,0,0,0,0,0,0,0,0,0,0,0,0,0,0,0,0,0,0,0,0,0,0,0,0,0,0,0,0,0,0,0,0,0,0,0,0,0,0,0,0,0,0,0,0,0,0,0,0,0,0,0,0,0,0,0,0,0,
0,0,0,0,0,0,0,0,0,0,0,0,0,0,0,0,0,0,0,0,0,0,0,0,0,0,0,0,0,0,0,0,0,0,0,0,0,0,0,0,0,0,0,0,0,0,0,0,0,0,0,0,0,0,0,0,0,0,0,0,0,0,0,0,0,0,0,0,0,0,0,0,0,0,0,0,0,0,0,0,0,0,0,0,0,0,0,0,0,0,0,0,0,0,0,0,0,0,0,0,
0,0,0,0,0,0,0,0,0,0,0,0,0,0,0,0,0,0,0,0,0,0,0,0,0,0,0,0,0,0,0,0,0,0,0,0,0,0,0,0,0,0,0,0,0,0,0,0,0,0,0,0,0,0,0,0,0,0,0,0,0,0,0,0,0,0,0,0,0,0,0,0,0,0,0,0,0,0,0,0,0,0,0,0,0,0,0,0,0,0,0,0,0,0,0,0,0,0,0,0,
0,0,0,0,0,0,0,0,0,0,0,0,0,0,0,0,0,0,0,0,0,0,0,0,0,0,0,0,0,0,0,0,0,0,0,0,0,0,0,0,0,0,0,0,0,0,0,0,0,0,0,0,0,0,0,0,0,0,0,0,0,0,0,0,0,0,0,0,0,0,0,0,0,0,0,0,0,0,0,0,0,0,0,0,0,0,0,0,0,0,0,0,0,0,0,0,0,0,0,0,
0,0,0,0,0,0,0,0,0,0,0,0,0,0,0,0,0,0,0,0,0,0,0,0,0,0,0,0,0,0,0,0,0,0,0,0,0,0,0,0,0,0,0,0,0,0,0,0,0,0,0,0,0,0,0,0,0,0,0,0,0,0,0,0,0,0,0,0,0,0,0,0,0,0,0,0,0,0,0,0,0,0,0,0,0,0,0,0,0,0,0,0,0,0,0,0,0,0,0,0,
0,0,0,0,0,0,0,0,0,0,0,0,0,0,0,0,0,0,0,0,0,0,0,0,0,0,0,0,0,0,0,0,0,0,0,0,0,0,0,0,0,0,0,0,0,0,0,0,0,0,0,0,0,0,0,0,0,0,0,0,0,0,0,0,0,0,0,0,0,0,0,0,0,0,0,0,0,0,0,0,0,0,0,0,0,0,0,0,0,0,0,0,0,0,0,0,0,0,0,0,
0,0,0,0,0,0,0,0,0,0,0,0,0,0,0,0,0,0,0,0,0,0,0,0,0,0,0,0,0,0,0,0,0,0,0,0,0,0,0,0,0,0,0,0,0,0,0,0,0,0,0,0,0,0,0,0,0,0,0,0,0,0,0,0,0,0,0,0,0,0,0,0,0,0,0,0,0,0,0,0,0,0,0,0,0,0,0,0,0,0,0,0,0,0,0,0,0,0,0,0,
0,0,0,0,0,0,0,0,0,0,0,0,0,0,0,0,0,0,0,0,0,0,0,0,0,0,0,0,0,0,0,0,0,0,0,0,0,0,0,0,0,0,0,0,0,0,0,0,0,0,0,0,0,0,0,0,0,0,0,0,0,0,0,0,0,0,0,0,0,0,0,0,0,0,0,0,0,0,0,0,0,0,0,0,0,0,0,0,0,0,0,0,0,0,0,0,0,0,0,0,
0,0,0,0,0,0,0,0,0,0,0,0,0,0,0,0,0,0,0,0,0,0,0,0,0,0,0,0,0,0,0,0,0,0,0,0,0,0,0,0,0,0,0,0,0,0,0,0,0,0,0,0,0,0,0,0,0,0,0,0,0,0,0,0,0,0,0,0,0,0,0,0,0,0,0,0,0,0,0,0,0,0,0,0,0,0,0,0,0,0,0,0,0,0,0,0,0,0,0,0,
0,0,0,0,0,0,0,0,0,0,0,0,0,0,0,0,0,0,0,0,0,0,0,0,0,0,0,0,0,0,0,0,0,0,0,0,0,0,0,0,0,0,0,0,0,0,0,0,0,0,0,0,0,0,0,0,0,0,0,0,0,0,0,0,0,0,0,0,0,0,0,0,0,0,0,0,0,0,0,0,0,0,0,0,0,0,0,0,0,0,0,0,0,0,0,0,0,0,0,0,
0,0,0,0,0,0,0,0,0,0,0,0,0,0,0,0,0,0,0,0,0,0,0,0,0,0,0,0,0,0,0,0,0,0,0,0,0,0,0,0,0,0,0,0,0,0,0,0,0,0,0,0,0,0,0,0,0,0,0,0,0,0,0,0,0,0,0,0,0,0,0,0,0,0,0,0,0,0,0,0,0,0,0,0,0,0,0,0,0,0,0,0,0,0,0,0,0,0,0,0,
0,0,0,0,0,0,0,0,0,0,0,0,0,0,0,0,0,0,0,0,0,0,0,0,0,0,0,0,0,0,0,0,0,0,0,0,0,0,0,0,0,0,0,0,0,0,0,0,0,0,0,0,0,0,0,0,0,0,0,0,0,0,0,0,0,0,0,0,0,0,0,0,0,0,0,0,0,0,0,0,0,0,0,0,0,0,0,0,0,0,0,0,0,0,0,0,0,0,0,0,
0,0,0,0,0,0,0,0,0,0,0,0,0,0,0,0,0,0,0,0,0,0,0,0,0,0,0,0,0,0,0,0,0,0,0,0,0,0,0,0,0,0,0,0,0,0,0,0,0,0,0,0,0,0,0,0,0,0,0,0,0,0,0,0,0,0,0,0,0,0,0,0,0,0,0,0,0,0,0,0,0,0,0,0,0,0,0,0,0,0,0,0,0,0,0,0,0,0,0,0,
0,0,0,0,0,0,0,0,0,0,0,0,0,0,0,0,0,0,0,0,0,0,0,0,0,0,0,0,0,0,0,0,0,0,0,0,0,0,0,0,0,0,0,0,0,0,0,0,0,0,0,0,0,0,0,0,0,0,0,0,0,0,0,0,0,0,0,0,0,0,0,0,0,0,0,0,0,0,0,0,0,0,0,0,0,0,0,0,0,0,0,0,0,0,0,0,0,0,0,0,
0,0,0,0,0,0,0,0,0,0,0,0,0,0,0,0,0,0,0,0,0,0,0,0,0,0,0,0,0,0,0,0,0,0,0,0,0,0,0,0,0,0,0,0,0,0,0,0,0,0,0,0,0,0,0,0,0,0,0,0,0,0,0,0,0,0,0,0,0,0,0,0,0,0,0,0,0,0,0,0,0,0,0,0,0,0,0,0,0,0,0,0,0,0,0,0,0,0,0,0,
0,0,0,0,0,0,0,0,0,0,0,0,0,0,0,0,0,0,0,0,0,0,0,0,0,0,0,0,0,0,0,0,0,0,0,0,0,0,0,0,0,0,0,0,0,0,0,0,0,0,0,0,0,0,0,0,0,0,0,0,0,0,0,0,0,0,0,0,0,0,0,0,0,0,0,0,0,0,0,0,0,0,0,0,0,0,0,0,0,0,0,0,0,0,0,0,0,0,0,0,
0,0,0,0,0,0,0,0,0,0,0,0,0,0,0,0,0,0,0,0,0,0,0,0,0,0,0,0,0,0,0,0,0,0,0,0,0,0,0,0,0,0,0,0,0,0,0,0,0,0,0,0,0,0,0,0,0,0,0,0,0,0,0,0,0,0,0,0,0,0,0,0,0,0,0,0,0,0,0,0,0,0,0,0,0,0,0,0,0,0,0,0,0,0,0,0,0,0,0,0,
0,0,0,0,0,0,0,0,0,0,0,0,0,0,0,0,0,0,0,0,0,0,0,0,0,0,0,0,0,0,0,0,0,0,0,0,0,0,0,0,0,0,0,0,0,0,0,0,0,0,0,0,0,0,0,0,0,0,0,0,0,0,0,0,0,0,0,0,0,0,0,0,0,0,0,0,0,0,0,0,0,0,0,0,0,0,0,0,0,0,0,0,0,0,0,0,0,0,0,0,
0,0,0,0,0,0,0,0,0,0,0,0,0,0,0,0,0,0,0,0,0,0,0,0,0,0,0,0,0,0,0,0,0,0,0,0,0,0,0,0,0,0,0,0,0,0,0,0,0,0,0,0,0,0,0,0,0,0,0,0,0,0,0,0,0,0,0,0,0,0,0,0,0,0,0,0,0,0,0,0,0,0,0,0,0,0,0,0,0,0,0,0,0,0,0,0,0,0,0,0,
0,0,0,0,0,0,0,0,0,0,0,0,0,0,0,0,0,0,0,0,0,0,0,0,0,0,0,0,0,0,0,0,0,0,0,0,0,0,0,0,0,0,0,0,0,0,0,0,0,0,0,0,0,0,0,0,0,0,0,0,0,0,0,0,0,0,0,0,0,0,0,0,0,0,0,0,0,0,0,0,0,0,0,0,0,0,0,0,0,0,0,0,0,0,0,0,0,0,0,0,
0,0,0,0,0,0,0,0,0,0,0,0,0,0,0,0,0,0,0,0,0,0,0,0,0,0,0,0,0,0,0,0,0,0,0,0,0,0,0,0,0,0,0,0,0,0,0,0,0,0,0,0,0,0,0,0,0,0,0,0,0,0,0,0,0,0,0,0,0,0,0,0,0,0,0,0,0,0,0,0,0,0,0,0,0,0,0,0,0,0,0,0,0,0,0,0,0,0,0,0,
0,0,0,0,0,0,0,0,0,0,0,0,0,0,0,0,0,0,0,0,0,0,0,0,0,0,0,0,0,0,0,0,0,0,0,0,0,0,0,0,0,0,0,0,0,0,0,0,0,0,0,0,0,0,0,0,0,0,0,0,0,0,0,0,0,0,0,0,0,0,0,0,0,0,0,0,0,0,0,0,0,0,0,0,0,0,0,0,0,0,0,0,0,0,0,0,0,0,0,0,
0,0,0,0,0,0,0,0,0,0,0,0,0,0,0,0,0,0,0,0,0,0,0,0,0,0,0,0,0,0,0,0,0,0,0,0,0,0,0,0,0,0,0,0,0,0,0,0,0,0,0,0,0,0,0,0,0,0,0,0,0,0,0,0,0,0,0,0,0,0,0,0,0,0,0,0,0,0,0,0,0,0,0,0,0,0,0,0,0,0,0,0,0,0,0,0,0,0,0,0,
0,0,0,0,0,0,0,0,0,0,0,0,0,0,0,0,0,0,0,0,0,0,0,0,0,0,0,0,0,0,0,0,0,0,0,0,0,0,0,0,0,0,0,0,0,0,0,0,0,0,0,0,0,0,0,0,0,0,0,0,0,0,0,0,0,0,0,0,0,0,0,0,0,0,0,0,0,0,0,0,0,0,0,0,0,0,0,0,0,0,0,0,0,0,0,0,0,0,0,0,
0,0,0,0,0,0,0,0,0,0,0,0,0,0,0,0,0,0,0,0,0,0,0,0,0,0,0,0,0,0,0,0,0,0,0,0,0,0,0,0,0,0,0,0,0,0,0,0,0,0,0,0,0,0,0,0,0,0,0,0,0,0,0,0,0,0,0,0,0,0,0,0,0,0,0,0,0,0,0,0,0,0,0,0,0,0,0,0,0,0,0,0,0,0,0,0,0,0,0,0,
0,0,0,0,0,0,0,0,0,0,0,0,0,0,0,0,0,0,0,0,0,0,0,0,0,0,0,0,0,0,0,0,0,0,0,0,0,0,0,0,0,0,0,0,0,0,0,0,0,0,0,0,0,0,0,0,0,0,0,0,0,0,0,0,0,0,0,0,0,0,0,0,0,0,0,0,0,0,0,0,0,0,0,0,0,0,0,0,0,0,0,0,0,0,0,0,0,0,0,0,
0,0,0,0,0,0,0,0,0,0,0,0,0,0,0,0,0,0,0,0,0,0,0,0,0,0,0,0,0,0,0,0,0,0,0,0,0,0,0,0,0,0,0,0,0,0,0,0,0,0,0,0,0,0,0,0,0,0,0,0,0,0,0,0,0,0,0,0,0,0,0,0,0,0,0,0,0,0,0,0,0,0,0,0,0,0,0,0,0,0,0,0,0,0,0,0,0,0,0,0,
0,0,0,0,0,0,0,0,0,0,0,0,0,0,0,0,0,0,0,0,0,0,0,0,0,0,0,0,0,0,0,0,0,0,0,0,0,0,0,0,0,0,0,0,0,0,0,0,0,0,0,0,0,0,0,0,0,0,0,0,0,0,0,0,0,0,0,0,0,0,0,0,0,0,0,0,0,0,0,0,0,0,0,0,0,0,0,0,0,0,0,0,0,0,0,0,0,0,0,0,
0,0,0,0,0,0,0,0,0,0,0,0,0,0,0,0,0,0,0,0,0,0,0,0,0,0,0,0,0,0,0,0,0,0,0,0,0,0,0,0,0,0,0,0,0,0,0,0,0,0,0,0,0,0,0,0,0,0,0,0,0,0,0,0,0,0,0,0,0,0,0,0,0,0,0,0,0,0,0,0,0,0,0,0,0,0,0,0,0,0,0,0,0,0,0,0,0,0,0,0,
0,0,0,0,0,0,0,0,0,0,0,0,0,0,0,0,0,0,0,0,0,0,0,0,0,0,0,0,0,0,0,0,0,0,0,0,0,0,0,0,0,0,0,0,0,0,0,0,0,0,0,0,0,0,0,0,0,0,0,0,0,0,0,0,0,0,0,0,0,0,0,0,0,0,0,0,0,0,0,0,0,0,0,0,0,0,0,0,0,0,0,0,0,0,0,0,0,0,0,0,
0,0,0,0,0,0,0,0,0,0,0,0,0,0,0,0,0,0,0,0,0,0,0,0,0,0,0,0,0,0,0,0,0,0,0,0,0,0,0,0,0,0,0,0,0,0,0,0,0,0,0,0,0,0,0,0,0,0,0,0,0,0,0,0,0,0,0,0,0,0,0,0,0,0,0,0,0,0,0,0,0,0,0,0,0,0,0,0,0,0,0,0,0,0,0,0,0,0,0,0,
0,0,0,0,0,0,0,0,0,0,0,0,0,0,0,0,0,0,0,0,0,0,0,0,0,0,0,0,0,0,0,0,0,0,0,0,0,0,0,0,0,0,0,0,0,0,0,0,0,0,0,0,0,0,0,0,0,0,0,0,0,0,0,0,0,0,0,0,0,0,0,0,0,0,0,0,0,0,0,0,0,0,0,0,0,0,0,0,0,0,0,0,0,0,0,0,0,0,0,0,
0,0,0,0,0,0,0,0,0,0,0,0,0,0,0,0,0,0,0,0,0,0,0,0,0,0,0,0,0,0,0,0,0,0,0,0,0,0,0,0,0,0,0,0,0,0,0,0,0,0,0,0,0,0,0,0,0,0,0,0,0,0,0,0,0,0,0,0,0,0,0,0,0,0,0,0,0,0,0,0,0,0,0,0,0,0,0,0,0,0,0,0,0,0,0,0,0,0,0,0,
0,0,0,0,0,0,0,0,0,0,0,0,0,0,0,0,0,0,0,0,0,0,0,0,0,0,0,0,0,0,0,0,0,0,0,0,0,0,0,0,0,0,0,0,0,0,0,0,0,0,0,0,0,0,0,0,0,0,0,0,0,0,0,0,0,0,0,0,0,0,0,0,0,0,0,0,0,0,0,0,0,0,0,0,0,0,0,0,0,0,0,0,0,0,0,0,0,0,0,0,
0,0,0,0,0,0,0,0,0,0,0,0,0,0,0,0,0,0,0,0,0,0,0,0,0,0,0,0,0,0,0,0,0,0,0,0,0,0,0,0,0,0,0,0,0,0,0,0,0,0,0,0,0,0,0,0,0,0,0,0,0,0,0,0,0,0,0,0,0,0,0,0,0,0,0,0,0,0,0,0,0,0,0,0,0,0,0,0,0,0,0,0,0,0,0,0,0,0,0,0,
0,0,0,0,0,0,0,0,0,0,0,0,0,0,0,0,0,0,0,0,0,0,0,0,0,0,0,0,0,0,0,0,0,0,0,0,0,0,0,0,0,0,0,0,0,0,0,0,0,0,0,0,0,0,0,0,0,0,0,0,0,0,0,0,0,0,0,0,0,0,0,0,0,0,0,0,0,0,0,0,0,0,0,0,0,0,0,0,0,0,0,0,0,0,0,0,0,0,0,0,
0,0,0,0,0,0,0,0,0,0,0,0,0,0,0,0,0,0,0,0,0,0,0,0,0,0,0,0,0,0,0,0,0,0,0,0,0,0,0,0,0,0,0,0,0,0,0,0,0,0,0,0,0,0,0,0,0,0,0,0,0,0,0,0,0,0,0,0,0,0,0,0,0,0,0,0,0,0,0,0,0,0,0,0,0,0,0,0,0,0,0,0,0,0,0,0,0,0,0,0,
0,0,0,0,0,0,0,0,0,0,0,0,0,0,0,0,0,0,0,0,0,0,0,0,0,0,0,0,0,0,0,0,0,0,0,0,0,0,0,0,0,0,0,0,0,0,0,0,0,0,0,0,0,0,0,0,0,0,0,0,0,0,0,0,0,0,0,0,0,0,0,0,0,0,0,0,0,0,0,0,0,0,0,0,0,0,0,0,0,0,0,0,0,0,0,0,0,0,0,0,
0,0,0,0,0,0,0,0,0,0,0,0,0,0,0,0,0,0,0,0,0,0,0,0,0,0,0,0,0,0,0,0,0,0,0,0,0,0,0,0,0,0,0,0,0,0,0,0,0,0,0,0,0,0,0,0,0,0,0,0,0,0,0,0,0,0,0,0,0,0,0,0,0,0,0,0,0,0,0,0,0,0,0,0,0,0,0,0,0,0,0,0,0,0,0,0,0,0,0,0,
0,0,0,0,0,0,0,0,0,0,0,0,0,0,0,0,0,0,0,0,0,0,0,0,0,0,0,0,0,0,0,0,0,0,0,0,0,0,0,0,0,0,0,0,0,0,0,0,0,0,0,0,0,0,0,0,0,0,0,0,0,0,0,0,0,0,0,0,0,0,0,0,0,0,0,0,0,0,0,0,0,0,0,0,0,0,0,0,0,0,0,0,0,0,0,0,0,0,0,0,
0,0,0,0,0,0,0,0,0,0,0,0,0,0,0,0,0,0,0,0,0,0,0,0,0,0,0,0,0,0,0,0,0,0,0,0,0,0,0,0,0,0,0,0,0,0,0,0,0,0,0,0,0,0,0,0,0,0,0,0,0,0,0,0,0,0,0,0,0,0,0,0,0,0,0,0,0,0,0,0,0,0,0,0,0,0,0,0,0,0,0,0,0,0,0,0,0,0,0,0,
0,0,0,0,0,0,0,0,0,0,0,0,0,0,0,0,0,0,0,0,0,0,0,0,0,0,0,0,0,0,0,0,0,0,0,0,0,0,0,0,0,0,0,0,0,0,0,0,0,0,0,0,0,0,0,0,0,0,0,0,0,0,0,0,0,0,0,0,0,0,0,0,0,0,0,0,0,0,0,0,0,0,0,0,0,0,0,0,0,0,0,0,0,0,0,0,0,0,0,0,
0,0,0,0,0,0,0,0,0,0,0,0,0,0,0,0,0,0,0,0,0,0,0,0,0,0,0,0,0,0,0,0,0,0,0,0,0,0,0,0,0,0,0,0,0,0,0,0,0,0,0,0,0,0,0,0,0,0,0,0,0,0,0,0,0,0,0,0,0,0,0,0,0,0,0,0,0,0,0,0,0,0,0,0,0,0,0,0,0,0,0,0,0,0,0,0,0,0,0,0,
0,0,0,0,0,0,0,0,0,0,0,0,0,0,0,0,0,0,0,0,0,0,0,0,0,0,0,0,0,0,0,0,0,0,0,0,0,0,0,0,0,0,0,0,0,0,0,0,0,0,0,0,0,0,0,0,0,0,0,0,0,0,0,0,0,0,0,0,0,0,0,0,0,0,0,0,0,0,0,0,0,0,0,0,0,0,0,0,0,0,0,0,0,0,0,0,0,0,0,0,
0,0,0,0,0,0,0,0,0,0,0,0,0,0,0,0,0,0,0,0,0,0,0,0,0,0,0,0,0,0,0,0,0,0,0,0,0,0,0,0,0,0,0,0,0,0,0,0,0,0,0,0,0,0,0,0,0,0,0,0,0,0,0,0,0,0,0,0,0,0,0,0,0,0,0,0,0,0,0,0,0,0,0,0,0,0,0,0,0,0,0,0,0,0,0,0,0,0,0,0,
0,0,0,0,0,0,0,0,0,0,0,0,0,0,0,0,0,0,0,0,0,0,0,0,0,0,0,0,0,0,0,0,0,0,0,0,0,0,0,0,0,0,0,0,0,0,0,0,0,0,0,0,0,0,0,0,0,0,0,0,0,0,0,0,0,0,0,0,0,0,0,0,0,0,0,0,0,0,0,0,0,0,0,0,0,0,0,0,0,0,0,0,0,0,0,0,0,0,0,0,
0,0,0,0,0,0,0,0,0,0,0,0,0,0,0,0,0,0,0,0,0,0,0,0,0,0,0,0,0,0,0,0,0,0,0,0,0,0,0,0,0,0,0,0,0,0,0,0,0,0,0,0,0,0,0,0,0,0,0,0,0,0,0,0,0,0,0,0,0,0,0,0,0,0,0,0,0,0,0,0,0,0,0,0,0,0,0,0,0,0,0,0,0,0,0,0,0,0,0,0,
0,0,0,0,0,0,0,0,0,0,0,0,0,0,0,0,0,171,172,0,0,0,0,0,0,0,0,0,0,0,0,0,0,0,0,0,0,0,0,0,0,0,0,0,0,0,0,0,0,0,0,0,0,0,0,0,0,0,0,0,0,0,0,0,0,0,0,0,0,0,0,0,0,0,0,0,0,0,0,0,0,0,0,0,0,0,0,0,0,0,0,0,0,0,0,0,0,0,0,0,
0,0,0,0,0,0,0,0,0,0,0,0,0,0,0,0,0,179,180,0,0,0,0,0,0,0,0,0,0,0,0,0,0,0,0,0,0,0,0,0,0,0,0,0,0,0,0,0,0,0,0,0,0,0,0,0,0,0,0,0,0,0,0,0,0,0,0,0,0,0,0,0,0,0,0,0,0,0,0,0,0,0,0,0,0,0,0,0,0,0,0,0,0,0,0,0,0,0,0,0,
0,0,0,0,0,0,0,0,0,0,0,0,0,0,0,0,0,0,0,0,235,0,0,0,0,0,0,0,0,0,0,0,0,0,0,0,0,0,0,0,0,0,0,0,0,0,0,0,0,0,0,0,0,0,0,0,0,0,0,0,0,0,0,0,0,0,0,0,0,0,0,0,0,0,0,0,0,0,0,0,0,0,0,0,0,0,0,0,0,0,0,0,0,0,0,0,0,0,0,0,
0,0,0,0,0,0,0,0,0,0,0,0,0,0,0,0,0,0,0,0,0,0,0,0,0,0,0,0,0,0,0,0,0,0,0,0,0,0,0,0,0,0,0,0,0,0,0,0,0,0,0,0,0,0,0,0,0,0,0,0,0,0,0,0,0,0,0,0,0,0,0,0,0,0,0,0,0,0,0,0,0,0,0,0,0,0,0,0,0,0,0,0,0,0,0,0,0,0,0,0,
0,0,0,0,0,0,0,0,0,0,0,0,0,0,0,0,0,0,0,0,0,0,0,0,0,0,0,0,0,0,0,0,0,0,0,0,0,0,0,0,0,0,0,0,0,0,0,0,0,0,0,0,0,0,0,0,0,0,0,0,0,0,0,0,0,0,0,0,0,0,0,0,0,0,0,0,0,0,0,0,0,0,0,0,0,0,0,0,0,0,0,0,0,0,0,0,0,0,0,0,
0,0,0,0,0,0,0,0,0,0,0,0,0,0,0,0,0,0,196,0,0,0,188,0,0,0,0,0,0,0,0,0,0,0,0,0,0,0,0,0,0,0,0,0,0,0,0,0,0,0,0,0,0,0,0,0,0,0,0,0,0,0,0,0,0,0,0,0,0,0,0,0,0,0,0,0,0,0,0,0,0,0,0,0,0,0,0,0,0,0,0,0,0,0,0,0,0,0,0,0,
0,0,0,0,0,0,0,0,0,0,0,0,0,0,0,0,0,0,0,195,0,187,0,0,0,0,0,0,0,0,0,0,0,0,0,0,0,0,0,0,0,0,0,0,0,0,0,0,0,0,0,0,0,0,0,0,0,0,0,0,0,0,0,0,0,0,0,0,0,0,0,0,0,0,0,0,0,0,0,0,0,0,0,0,0,0,0,0,0,0,0,0,0,0,0,0,0,0,0,0,
0,0,0,0,0,0,0,0,0,0,0,0,0,0,0,0,0,0,188,0,196,0,0,0,0,0,0,0,0,0,0,0,0,0,0,0,0,0,0,0,0,0,0,0,0,0,0,0,0,0,0,0,0,0,0,0,0,0,0,0,0,0,0,0,0,0,0,0,0,0,0,0,0,0,0,0,0,0,0,0,0,0,0,0,0,0,0,0,0,0,0,0,0,0,0,0,0,0,0,0,
0,0,0,0,0,0,0,0,0,0,0,0,0,0,0,0,0,0,0,0,0,0,0,0,0,0,0,0,0,0,0,0,0,0,0,0,0,0,0,0,0,0,0,0,0,0,0,0,0,0,0,0,0,0,0,0,0,0,0,0,0,0,0,0,0,0,0,0,0,0,0,0,0,0,0,0,0,0,0,0,0,0,0,0,0,0,0,0,0,0,0,0,0,0,0,0,0,0,0,0,
0,0,0,0,0,0,0,0,0,0,0,0,0,0,0,0,0,0,0,0,0,0,0,0,0,0,0,0,0,0,0,0,0,0,0,0,0,0,0,0,0,0,0,0,0,0,0,0,0,0,0,0,0,0,0,0,0,0,0,0,0,0,0,0,0,0,0,0,0,0,0,0,0,0,0,0,0,0,0,0,0,0,0,0,0,0,0,0,0,0,0,0,0,0,0,0,0,0,0,0,
0,0,0,0,0,0,0,0,0,0,0,0,0,0,0,0,0,0,0,0,0,0,0,0,0,0,0,0,0,0,0,0,0,0,0,0,0,0,0,0,0,0,0,0,0,0,0,0,0,0,0,0,0,0,0,0,0,0,0,0,0,0,0,0,0,0,0,0,0,0,0,0,0,0,0,0,0,0,0,0,0,0,0,0,0,0,0,0,0,0,0,0,0,0,0,0,0,0,0,0,
0,0,0,0,0,0,0,0,0,0,0,0,0,0,0,0,0,0,0,0,0,0,0,0,0,0,0,0,0,0,0,0,0,0,0,0,0,0,0,0,0,0,0,0,0,0,0,0,0,0,0,0,0,0,0,0,0,0,0,0,0,0,0,0,0,0,0,0,0,0,0,0,0,0,0,0,0,0,0,0,0,0,0,0,0,0,0,0,0,0,0,0,0,0,0,0,0,0,0,0,
0,0,0,0,0,0,0,0,0,0,0,0,0,0,0,0,0,0,0,0,0,0,0,0,0,0,0,0,0,0,0,0,0,0,0,0,0,0,0,0,0,0,0,0,0,0,0,0,0,0,0,0,0,0,0,0,0,0,0,0,0,0,0,0,0,0,0,0,0,0,0,0,0,0,0,0,0,0,0,0,0,0,0,0,0,0,0,0,0,0,0,0,0,0,0,0,0,0,0,0,
0,0,0,0,0,0,0,0,0,0,0,0,0,0,0,0,0,0,0,0,0,0,0,0,0,0,0,0,0,0,0,0,0,0,0,0,0,0,0,0,0,0,0,0,0,0,0,0,0,0,0,0,0,0,0,0,0,0,0,0,0,0,0,0,0,0,0,0,0,0,0,0,0,0,0,0,0,0,0,0,0,0,0,0,0,0,0,0,0,0,0,0,0,0,0,0,0,0,0,0,
0,0,0,0,0,0,0,0,0,0,0,0,0,0,0,0,0,0,0,0,0,0,0,0,0,0,0,0,0,0,0,0,0,0,0,0,0,0,0,0,0,0,0,0,0,0,0,0,0,0,0,0,0,0,0,0,0,0,0,0,0,0,0,0,0,0,0,0,0,0,0,0,0,0,0,0,0,0,0,0,0,0,0,0,0,0,0,0,0,0,0,0,0,0,0,0,0,0,0,0,
0,0,0,0,0,0,0,0,0,0,0,0,0,0,0,0,0,0,0,0,0,0,0,0,0,0,0,0,0,0,0,0,0,0,0,0,0,0,0,0,0,0,0,0,0,0,0,0,0,0,0,0,0,0,0,0,0,0,0,0,0,0,0,0,0,0,0,0,0,0,0,0,0,0,0,0,0,0,0,0,0,0,0,0,0,0,0,0,0,0,0,0,0,0,0,0,0,0,0,0,
0,0,0,0,0,0,0,0,0,0,0,0,0,0,0,0,0,0,0,0,0,0,0,0,0,0,0,0,0,0,0,0,0,0,0,0,0,0,0,0,0,0,0,0,0,0,0,0,0,0,0,0,0,0,0,0,0,0,0,0,0,0,0,0,0,0,0,0,0,0,0,0,0,0,0,0,0,0,0,0,0,0,0,0,0,0,0,0,0,0,0,0,0,0,0,0,0,0,0,0,
0,0,0,0,0,0,0,0,0,0,0,0,0,0,0,0,0,0,0,0,0,0,0,0,0,0,0,0,0,0,0,0,0,0,0,0,0,0,0,0,0,0,0,0,0,0,0,0,0,0,0,0,0,0,0,0,0,0,0,0,0,0,0,0,0,0,0,0,0,0,0,0,0,0,0,0,0,0,0,0,0,0,0,0,0,0,0,0,0,0,0,0,0,0,0,0,0,0,0,0,
0,0,0,0,0,0,0,0,0,0,0,0,0,0,0,0,0,0,0,0,0,0,0,0,0,0,0,0,0,0,0,0,0,0,0,0,0,0,0,0,0,0,0,0,0,0,0,0,0,0,0,0,0,0,0,0,0,0,0,0,0,0,0,0,0,0,0,0,0,0,0,0,0,0,0,0,0,0,0,0,0,0,0,0,0,0,0,0,0,0,0,0,0,0,0,0,0,0,0,0,
0,0,0,0,0,0,0,0,0,0,0,0,0,0,0,0,0,0,0,0,0,0,0,0,0,0,0,0,0,0,0,0,0,0,0,0,0,0,0,0,0,0,0,0,0,0,0,0,0,0,0,0,0,0,0,0,0,0,0,0,0,0,0,0,0,0,0,0,0,0,0,0,0,0,0,0,0,0,0,0,0,0,0,0,0,0,0,0,0,0,0,0,0,0,0,0,0,0,0,0,
0,0,0,0,0,0,0,0,0,0,0,0,0,0,0,0,0,0,0,0,0,0,0,0,0,0,0,0,0,0,0,0,0,0,0,0,0,0,0,0,0,0,0,0,0,0,0,0,0,0,0,0,0,0,0,0,0,0,0,0,0,0,0,0,0,0,0,0,0,0,0,0,0,0,0,0,0,0,0,0,0,0,0,0,0,0,0,0,0,0,0,0,0,0,0,0,0,0,0,0,
0,0,0,0,0,0,0,0,0,0,0,0,0,0,0,0,0,0,0,0,0,0,0,0,0,0,0,0,0,0,0,0,0,0,0,0,0,0,0,0,0,0,0,0,0,0,0,0,0,0,0,0,0,0,0,0,0,0,0,0,0,0,0,0,0,0,0,0,0,0,0,0,0,0,0,0,0,0,0,0,0,0,0,0,0,0,0,0,0,0,0,0,0,0,0,0,0,0,0,0,
0,0,0,0,0,0,0,0,0,0,0,0,0,0,0,0,0,0,0,0,0,0,0,0,0,0,0,0,0,0,0,0,0,0,0,0,0,0,0,0,0,0,0,0,0,0,0,0,0,0,0,0,0,0,0,0,0,0,0,0,0,0,0,0,0,0,0,0,0,0,0,0,0,0,0,0,0,0,0,0,0,0,0,0,0,0,0,0,0,0,0,0,0,0,0,0,0,0,0,0,
0,0,0,0,0,0,0,0,0,0,0,0,0,0,0,0,0,0,0,0,0,0,0,0,0,0,0,0,0,0,0,0,0,0,0,0,0,0,0,0,0,0,0,0,0,0,0,0,0,0,0,0,0,0,0,0,0,0,0,0,0,0,0,0,0,0,0,0,0,0,0,0,0,0,0,0,0,0,0,0,0,0,0,0,0,0,0,0,0,0,0,0,0,0,0,0,0,0,0,0,
0,0,0,0,0,0,0,0,0,0,0,0,0,0,0,0,0,0,0,0,0,0,0,0,0,0,0,0,0,0,0,0,0,0,0,0,0,0,0,0,0,0,0,0,0,0,0,0,0,0,0,0,0,0,0,0,0,0,0,0,0,0,0,0,0,0,0,0,0,0,0,0,0,0,0,0,0,0,0,0,0,0,0,0,0,0,0,0,0,0,0,0,0,0,0,0,0,0,0,0
</data>
 </layer>
</map>
